!!!!SEGMENT: pl-stab--5a--001-004_dankowski-adalbert--vespere-ex-c-de-confessoribus-beatus-vir.krn
!!!cenid: 18xx:3502
!!!COM: Dankowski, Adalbert
!!!COM-rismid: pe30000793
!!!CDT: ~1760-~1836
!!!CNT: Polish
!!!OPR: Vespere ex C de Confessoribus
!!!OTL: Beatus vir
!!!OMV: 004
!!!PDT:
!!!AGN:
!!!SMS-siglum: PL-STAb
!!!SMS-shelfmark: 5a
!!!SMS-shelfwork: 001-004 M
!!!SMS-variant:
!!!SMS-altvar:
!!!NIFC-rismid: 301050557
!!!URL-scan: https://repozytorium.nifc.pl/islandora/object/pl-stab%3A1317/datastream/PDF/view
!!!ONB-nifc: UWAGA: części Nieszporów: 1. Domine ad adjuvandum, 2. Dixit Dominus, 3. Confitebor, 4. Beatus vir, 5. Laudate pueri, 6. Laudate Dominum, 7. In Exitu, 8. Magnificat, 9. Quia fecit, 10. Fecit potentiam, 11. Suscepit Israel, 12. Gloria patri
!!!key: D
**kern	**fba	**dynam	**kern	**dynam	**kern	**dynam	**kern	**text	**kern	**text	**kern	**text	**kern	**text	**kern	**kern
*part9	*part9	*part9	*part8	*part8	*part7	*part7	*part6	*part6	*part5	*part5	*part4	*part4	*part3	*part3	*part2	*part1
*staff9	*	*	*staff8	*	*staff7	*	*staff6	*staff6	*staff5	*staff5	*staff4	*staff4	*staff3	*staff3	*staff2	*staff1
*	*	*	*group3	*	*group3	*	*group2	*	*group2	*	*group2	*	*group2	*	*group1	*group1
*I"Organo	*	*	*I"Violino Secondo	*	*I"Violino Primo	*	*I"Baſso.	*	*I"Tenore.	*	*I"Alto.	*	*I"Canto	*	*I"Cornu Secondo Ex C.	*I"Cornu Primo ex C.
*I'org	*	*	*I'vl 2	*	*I'vl 1	*	*I'B	*	*I'T	*	*I'A	*	*I'S	*	*I'cor 2 in C	*I'cor 1 in C
*Iorg	*	*	*Ivioln	*	*Ivioln	*	*Ibass	*	*Itenor	*	*Ialto	*	*Isoprn	*	*Icor	*Icor
*ICklav	*	*	*ICstr	*	*ICstr	*	*ICvox	*	*ICvox	*	*ICvox	*	*ICvox	*	*ICbras	*ICbras
*IGcont	*	*	*IGacmp	*	*IGacmp	*	*IGcoro	*	*IGcoro	*	*IGcoro	*	*IGcoro	*	*IGacmp	*IGacmp
*clefF4	*	*	*clefG2	*	*clefG2	*	*clefF4	*	*clefC4	*	*clefC3	*	*clefC1	*	*clefG2	*clefG2
*	*	*	*	*	*	*	*	*	*	*	*	*	*	*	*ITrd6c10	*ITrd6c10
*k[f#c#]	*	*	*k[f#c#]	*	*k[f#c#]	*	*k[f#c#]	*	*k[c#f#]	*	*k[f#c#]	*	*k[f#c#]	*	*k[f#c#]	*k[f#c#]
*D:	*	*	*D:	*	*D:	*	*D:	*	*D:	*	*D:	*	*D:	*	*D:	*D:
*M6/8	*	*	*M6/8	*	*M6/8	*	*M6/8	*	*M6/8	*	*M6/8	*	*M6/8	*	*M6/8	*M6/8
=1	=1	=1	=1	=1	=1	=1	=1	=1	=1	=1	=1	=1	=1	=1	=1	=1
!LO:TX:a:i:t=Solo.	!	!	!	!	!	!	!	!	!LO:TX:a:t=8	!	!LO:TX:a:i:t=Solo	!	!	!	!LO:TX:a:t=Ex D.	!LO:TX:a:t=Ex D
!LO:TX:a:B:t=allegro ma non tanto.	!	!	!LO:TX:a:B:t=Allegro ma non tanto	!	!LO:TX:a:B:t=Allegro ma non tanto	!	!LO:TX:a:B:t=[Al]legro ma non tanto	!	!LO:TX:a:B:t=Allegro ma non [ta]nto.	!	!LO:TX:a:B:t=Allegro.	!	!LO:TX:a:B:t=Allegro\nma non tanto	!	!LO:TX:a:B:t=Allegro ma non tanto	!LO:TX:a:B:t=Allegro non tanto
4.D\	.	.	8d/L	.	8f#/L	.	0.r	.	0.r	.	4.f#\	Be-	4.dd\	Be-	0.r	0.r
.	.	.	8f#/	.	8a/	.	.	.	.	.	.	.	.	.	.	.
.	.	.	8f#/J	.	8a/J	.	.	.	.	.	.	.	.	.	.	.
!	!	!	!	!	!LO:TX:t=P:problem:mixed beam	!	!	!	!	!	!	!	!	!	!	!
4.AA/	.	.	8c#/L	.	8e/L	.	.	.	.	.	4a\	-a-	8.ee\L	-a-	.	.
.	.	.	8e/	.	8cc#\	.	.	.	.	.	.	.	.	.	.	.
.	.	.	.	.	.	.	.	.	.	.	.	.	16dd\Jk	.	.	.
.	.	.	8e/J	.	8cc#\J	.	.	.	.	.	8a\	-tus	8ee\	-tus	.	.
=2	=2	=2	=2	=2	=2	=2	=2	=2	=2	=2	=2	=2	=2	=2	=2	=2
!	!	!	!LO:TX:t=P:problem:mixed beam	!	!	!	!	!	!	!	!	!	!	!	!	!
4DD/	.	.	8f#/L	.	8dd\L	.	.	.	.	.	4dd\	Vir	4ff#\	Vir	.	.
.	.	.	8dd\	.	8ff#\	.	.	.	.	.	.	.	.	.	.	.
8r	.	.	8dd\J	.	8ff#\J	.	.	.	.	.	8r	.	8r	.	.	.
4r	.	.	16cc#/LL	.	16ee\LL	.	.	.	.	.	8r	.	8r	.	.	.
.	.	.	16b/	.	16dd\	.	.	.	.	.	.	.	.	.	.	.
.	.	.	16a/	.	16cc#\	.	.	.	.	.	8r	.	8r	.	.	.
.	.	.	16g/	.	16b\	.	.	.	.	.	.	.	.	.	.	.
8r	.	.	16f#/	.	16a\	.	.	.	.	.	8g\	qui	8ee\	qui	.	.
.	.	.	16e/JJ	.	16g\JJ	.	.	.	.	.	.	.	.	.	.	.
=3	=3	=3	=3	=3	=3	=3	=3	=3	=3	=3	=3	=3	=3	=3	=3	=3
4.D\	.	.	8d/L	.	8f#/L	.	.	.	.	.	4f#\	ti-	4dd\	ti-	.	.
.	.	.	8f#/	.	8a/	.	.	.	.	.	.	.	.	.	.	.
!	!	!	!	!	!	!	!	!	!	!	!	!	!LO:SIC:v:l:s=-met	!	!	!
.	.	.	8f#/J	.	8a/J	.	.	.	.	.	8f#\	-met	8dd\	-men	.	.
!	!	!	!	!	!LO:TX:t=P:problem:mixed beam	!	!	!	!	!	!	!	!	!	!	!
4.AA/	.	.	8c#/L	.	8e/L	.	.	.	.	.	4a\	Do-	8.ee\L	Do-	.	.
.	.	.	8e/	.	8cc#\	.	.	.	.	.	.	.	.	.	.	.
.	.	.	.	.	.	.	.	.	.	.	.	.	16dd\Jk	.	.	.
.	.	.	8e/J	.	8cc#\J	.	.	.	.	.	8a\	-mi-	8ee\	-mi-	.	.
!	!	!	!	!	!	!	!	!	!	!	!	!	!LO:LB:g=original	!	!	!
=4	=4	=4	=4	=4	=4	=4	=4	=4	=4	=4	=4	=4	=4	=4	=4	=4
!	!	!	!LO:TX:t=P:problem:mixed beam	!	!	!	!	!	!	!	!	!	!	!	!	!
4DD/	.	.	8f#/L	.	8dd\L	.	.	.	.	.	4dd\	-num	4ff#\	-num	.	.
.	.	.	8dd\	.	8ff#\	.	.	.	.	.	.	.	.	.	.	.
8r	.	.	8dd\J	.	8ff#\J	.	.	.	.	.	8r	.	8r	.	.	.
4r	.	.	16cc#/LL	.	16ee\LL	.	.	.	.	.	8r	.	8r	.	.	.
.	.	.	16b/	.	16dd\	.	.	.	.	.	.	.	.	.	.	.
.	.	.	16a/	.	16cc#\	.	.	.	.	.	8r	.	8r	.	.	.
.	.	.	16g/	.	16b\	.	.	.	.	.	.	.	.	.	.	.
8r	.	.	16f#/	.	16a\	.	.	.	.	.	8g\	in	8ee\	in	.	.
.	.	.	16e/JJ	.	16g\JJ	.	.	.	.	.	.	.	.	.	.	.
!	!	!	!	!	!LO:LB:g=original	!	!	!	!	!	!LO:LB:g=original	!	!	!	!	!
=5	=5	=5	=5	=5	=5	=5	=5	=5	=5	=5	=5	=5	=5	=5	=5	=5
4D\	.	.	8d/L	.	8f#/L	.	0.r	.	0.r	.	4.f#\	man-	4.dd\	man-	0.r	0.r
.	.	.	8f#/	.	8a/	.	.	.	.	.	.	.	.	.	.	.
8r	.	.	8f#/J	.	8a/J	.	.	.	.	.	.	.	.	.	.	.
*	*	*	*rep	*	*	*	*	*	*	*	*	*	*	*	*	*
4D\	.	.	8d/L	.	8f#/L	.	.	.	.	.	8.f#\L	-da-	8.dd\L	-da-	.	.
.	.	.	8f#/	.	8a/	.	.	.	.	.	.	.	.	.	.	.
.	.	.	.	.	.	.	.	.	.	.	16e\Jk	.	16cc#\Jk	.	.	.
8r	.	.	8f#/J	.	8a/J	.	.	.	.	.	8f#\	-tis	8dd\	-tis	.	.
*	*	*	*Xrep	*	*	*	*	*	*	*	*	*	*	*	*	*
=6	=6	=6	=6	=6	=6	=6	=6	=6	=6	=6	=6	=6	=6	=6	=6	=6
4.A\	.	.	8c#/L	.	8e/L	.	.	.	.	.	4.a\	e-	4.ee\	e-	.	.
.	.	.	8e/	.	8g/	.	.	.	.	.	.	.	.	.	.	.
.	.	.	8e/J	.	8gJ 8e/	.	.	.	.	.	.	.	.	.	.	.
*	*	*	*rep	*	*rep	*	*	*	*	*	*	*	*	*	*	*
8r	.	.	8c#/L	.	8e/L	.	.	.	.	.	8.cc#\L	.	8.ee\L	.	.	.
4AA/	.	.	8e/	.	8g/	.	.	.	.	.	.	.	.	.	.	.
.	.	.	.	.	.	.	.	.	.	.	16b\Jk	.	16dd\Jk	.	.	.
.	.	.	8e/J	.	8gJ 8e/	.	.	.	.	.	8cc#\	-jus	8ee\	-jus	.	.
*	*	*	*Xrep	*	*Xrep	*	*	*	*	*	*	*	*	*	*	*
!	!	!	!LO:LB:g=original	!	!	!	!	!	!	!	!	!	!	!	!	!
=7	=7	=7	=7	=7	=7	=7	=7	=7	=7	=7	=7	=7	=7	=7	=7	=7
8D\L	8_ 3_	.	4.d/	.	4.f#/	.	.	.	.	.	4.dd\	Vo-	4.ff#\	Vo-	.	.
8d\	.	.	.	.	.	.	.	.	.	.	.	.	.	.	.	.
8c#\J	.	.	.	.	.	.	.	.	.	.	.	.	.	.	.	.
8B\L	.	.	4.d/	.	4.f#/	.	.	.	.	.	4.dd\	-let	4.ff#\	-let	.	.
8A\	.	.	.	.	.	.	.	.	.	.	.	.	.	.	.	.
8G#X\J	.	.	.	.	.	.	.	.	.	.	.	.	.	.	.	.
!LO:LB:g=original	!	!	!	!	!	!	!	!	!	!	!	!	!	!	!	!
=8	=8	=8	=8	=8	=8	=8	=8	=8	=8	=8	=8	=8	=8	=8	=8	=8
4.A\	6 4	.	8.d/L	.	8.f#/L	.	.	.	.	.	8.dd\L	ni-	8.ff#\L	ni-	.	.
.	.	.	16c#/K	.	16e/K	.	.	.	.	.	16cc#\K	.	16ee\K	.	.	.
.	.	.	8d/J	.	8f#/J	.	.	.	.	.	8dd\J	.	8ff#\J	.	.	.
8AA/L	5 3	.	4c#/	.	4e/	.	.	.	.	.	4cc#\	-mis	4ee\	-mis	.	.
!LO:TX:t=P:problem:mixed beam	!	!	!	!	!	!	!	!	!	!	!	!	!	!	!	!
16A\L|	.	.	.	.	.	.	.	.	.	.	.	.	.	.	.	.
16Gn\|	.	.	.	.	.	.	.	.	.	.	.	.	.	.	.	.
16F#\|	.	.	8r	.	8r	.	.	.	.	.	8r	.	8r	.	.	.
16E\JJ	.	.	.	.	.	.	.	.	.	.	.	.	.	.	.	.
!	!	!	!	!	!	!	!	!	!	!	!	!	!LO:LB:g=original	!	!	!
=9	=9	=9	=9	=9	=9	=9	=9	=9	=9	=9	=9	=9	=9	=9	=9	=9
!LO:TX:a:t=tutti	!	!	!	!	!	!LO:DY:a:t=f	!	!	!	!	!	!	!	!	!	!
8D\L	3_	.	16f#/LL	.	4dd\	f	4.D\	Po-	4.d\	Po-	4.a\	Po-	4.ff#\	Po-	4.d\	4.f#\
.	.	.	16a/	.	.	.	.	.	.	.	.	.	.	.	.	.
8D\	.	.	16f#/	.	.	.	.	.	.	.	.	.	.	.	.	.
.	.	.	16a/	.	.	.	.	.	.	.	.	.	.	.	.	.
8D\J	.	.	16f#/	.	8dd\	.	.	.	.	.	.	.	.	.	.	.
.	.	.	16a/JJ	.	.	.	.	.	.	.	.	.	.	.	.	.
*	*	*	*tremolo	*	*	*	*	*	*	*	*	*	*	*	*	*
8E\L	6_ 3_	.	16f#/LL	.	8.cc#\L	.	4E\	-tenſ	4c#\	-tens	4a\	-tenſ	4gg\	-tens	4.A/	4.e\
.	.	.	16a/	.	.	.	.	.	.	.	.	.	.	.	.	.
8E\	.	.	16f#/	.	.	.	.	.	.	.	.	.	.	.	.	.
.	.	.	16a/	.	16b\K	.	.	.	.	.	.	.	.	.	.	.
8E\J	.	.	16f#/	.	8cc#\J	.	8E\	in	8c#\	in	8a\	in	8gg\	in	.	.
.	.	.	16a/JJ	.	.	.	.	.	.	.	.	.	.	.	.	.
=10	=10	=10	=10	=10	=10	=10	=10	=10	=10	=10	=10	=10	=10	=10	=10	=10
8D\L	3	.	16f#/LL	.	4dd\	.	4.D\	ter-	4.d\	ter-	4.a\	ter-	4.ff#\	ter-	4.F#/	4.d\
.	.	.	16a/	.	.	.	.	.	.	.	.	.	.	.	.	.
8D\	.	.	16f#/	.	.	.	.	.	.	.	.	.	.	.	.	.
.	.	.	16a/	.	.	.	.	.	.	.	.	.	.	.	.	.
8D\J	.	.	16f#/	.	8ff#\	.	.	.	.	.	.	.	.	.	.	.
.	.	.	16a/JJ	.	.	.	.	.	.	.	.	.	.	.	.	.
8C#/L	6_ 5_	.	16e/LL	.	8aa\L	.	4.C#/	-ra	4.e\	-ra	4.a\	-ra	4.gg\	-ra	4.A/	4.e\
.	.	.	16a/	.	.	.	.	.	.	.	.	.	.	.	.	.
8C#/	.	.	16e/	.	8gg\	.	.	.	.	.	.	.	.	.	.	.
.	.	.	16a/	.	.	.	.	.	.	.	.	.	.	.	.	.
8C#/J	.	.	16e/	.	8ee\J	.	.	.	.	.	.	.	.	.	.	.
.	.	.	16a/JJ	.	.	.	.	.	.	.	.	.	.	.	.	.
!	!	!	!	!	!	!	!	!	!	!	!LO:LB:g=original	!	!	!	!	!
=11	=11	=11	=11	=11	=11	=11	=11	=11	=11	=11	=11	=11	=11	=11	=11	=11
8D\L	3_	.	16f#/LL	.	4dd\	.	4D\	e-	4d\	e-	4a\	e-	4ff#\	e-	4.d\	4.f#\
.	.	.	16a/	.	.	.	.	.	.	.	.	.	.	.	.	.
8D\	.	.	16f#/	.	.	.	.	.	.	.	.	.	.	.	.	.
.	.	.	16a/	.	.	.	.	.	.	.	.	.	.	.	.	.
8D\J	.	.	16f#/	.	8dd\	.	8D\	-rit	8d\	-rit	8a\	-rit	8ff#\	-rit	.	.
.	.	.	16a/JJ	.	.	.	.	.	.	.	.	.	.	.	.	.
!	!	!	!	!	!	!	!	!	!LO:SIC:v:l:s=Se-	!	!LO:SIC:v:l:s=Se-	!	!LO:SIC:v:l:s=Se-	!	!	!
8E\L	6_ 3_	.	16g/LL	.	8.cc#\L	.	4E\	Se-	4c#\	Si-	4a\	Si-	4gg\	Si-	4.A/	4.e\
.	.	.	16a/	.	.	.	.	.	.	.	.	.	.	.	.	.
8E\	.	.	16g/	.	.	.	.	.	.	.	.	.	.	.	.	.
.	.	.	16a/	.	16b\K	.	.	.	.	.	.	.	.	.	.	.
8E\J	.	.	16g/	.	8cc#\J	.	8E\	-men	8c#\	-men	8a\	-men	8gg\	-men	.	.
.	.	.	16a/JJ	.	.	.	.	.	.	.	.	.	.	.	.	.
!	!	!	!	!	!LO:LB:g=original	!	!LO:LB:g=original	!	!	!	!	!	!	!	!	!
=12	=12	=12	=12	=12	=12	=12	=12	=12	=12	=12	=12	=12	=12	=12	=12	=12
8D\L	3	.	16f#/LL	.	4dd\	.	4.D\	e-	4.d\	e-	4.a\	e-	4.ff#\	e-	4.F#/	4.d\
.	.	.	16a/	.	.	.	.	.	.	.	.	.	.	.	.	.
8D\	.	.	16f#/	.	.	.	.	.	.	.	.	.	.	.	.	.
.	.	.	16a/	.	.	.	.	.	.	.	.	.	.	.	.	.
8D\J	.	.	16f#/	.	8ff#\	.	.	.	.	.	.	.	.	.	.	.
.	.	.	16a/JJ	.	.	.	.	.	.	.	.	.	.	.	.	.
8C#/L	6_ 5_	.	16e/LL	.	8aa\L	.	4.C#/	-jus	4.e\	-juſ	4.a\	-juſ	4.gg\	-jus	4.A/	4.e\
.	.	.	16a/	.	.	.	.	.	.	.	.	.	.	.	.	.
8C#/	.	.	16e/	.	8gg\	.	.	.	.	.	.	.	.	.	.	.
.	.	.	16a/	.	.	.	.	.	.	.	.	.	.	.	.	.
8C#/J	.	.	16e/	.	8ee\J	.	.	.	.	.	.	.	.	.	.	.
.	.	.	16a/JJ	.	.	.	.	.	.	.	.	.	.	.	.	.
!	!	!	!	!	!	!	!	!	!LO:LB:g=original	!	!	!	!	!	!	!
=13	=13	=13	=13	=13	=13	=13	=13	=13	=13	=13	=13	=13	=13	=13	=13	=13
8D\L	3_	.	16f#/LL	.	4dd\	.	4D\	ge-	4d\	ge-	4a\	ge-	4ff#\	ge-	4.d\	4.f#\
.	.	.	16a/	.	.	.	.	.	.	.	.	.	.	.	.	.
8D\	.	.	16f#/	.	.	.	.	.	.	.	.	.	.	.	.	.
.	.	.	16a/	.	.	.	.	.	.	.	.	.	.	.	.	.
8D\J	.	.	16f#/	.	8dd\	.	8D\	-ne-	8d\	-ne-	8a\	-ne-	8ff#\	-ne-	.	.
.	.	.	16a/JJ	.	.	.	.	.	.	.	.	.	.	.	.	.
8D\L	.	.	16f#/LL	.	8.dd\L	.	4D\	-ra-	4d\	-ra-	4a\	-ra-	4ff#\	-ra-	4.d\	4.f#\
.	.	.	16a/	.	.	.	.	.	.	.	.	.	.	.	.	.
8D\	.	.	16f#/	.	.	.	.	.	.	.	.	.	.	.	.	.
.	.	.	16a/	.	16cc#\K	.	.	.	.	.	.	.	.	.	.	.
8D\J	.	.	16f#/	.	8dd\J	.	8D\	-ti-	8d\	-ti-	8a\	-ti-	8ff#\	-ti-	.	.
.	.	.	16a/JJ	.	.	.	.	.	.	.	.	.	.	.	.	.
!	!	!	!	!	!	!	!	!	!	!	!	!	!LO:PB:g=original	!	!	!
=14	=14	=14	=14	=14	=14	=14	=14	=14	=14	=14	=14	=14	=14	=14	=14	=14
8C#/L	6_ 5_	.	16g/LL	.	4ee\	.	4C#/	-o	4e\	-o	4a\	-o	4ee\	-o	4.A/	4.e\
.	.	.	16a/	.	.	.	.	.	.	.	.	.	.	.	.	.
8C#/	.	.	16g/	.	.	.	.	.	.	.	.	.	.	.	.	.
.	.	.	16a/	.	.	.	.	.	.	.	.	.	.	.	.	.
8C#/J	.	.	16g/	.	8ee\	.	8C#/	re-	8e\	re-	8a\	rec-	8ee\	rec-	.	.
.	.	.	16a/JJ	.	.	.	.	.	.	.	.	.	.	.	.	.
!	!	!	!	!	!	!	!	!	!	!	!	!	!	!	!	!LO:TX:b:i:t=Verte Subitto
8C#/L	.	.	16g/LL	.	8.ee\L	.	4.C#/	-cto-	4.e\	-cto-	4.a\	-to-	4.ee\	-to-	4.A/	4.e\
.	.	.	16a/	.	.	.	.	.	.	.	.	.	.	.	.	.
8C#/	.	.	16g/	.	.	.	.	.	.	.	.	.	.	.	.	.
.	.	.	16a/	.	16dd\K	.	.	.	.	.	.	.	.	.	.	.
8C#/J	.	.	16g/	.	8ee\J	.	.	.	.	.	.	.	.	.	.	.
.	.	.	16a/JJ	.	.	.	.	.	.	.	.	.	.	.	.	.
!LO:LB:g=original	!	!	!LO:LB:g=original	!	!	!	!	!	!	!	!	!	!	!	!	!LO:PB:g=original
=15	=15	=15	=15	=15	=15	=15	=15	=15	=15	=15	=15	=15	=15	=15	=15	=15
8D\L	3_	.	16f#/LL	.	4dd\	.	4D\	-rum	4d\	-rum	4a\	-rum	4ff#\	-rum	4.d\	4.f#\
.	.	.	16a/	.	.	.	.	.	.	.	.	.	.	.	.	.
8D\	.	.	16f#/	.	.	.	.	.	.	.	.	.	.	.	.	.
.	.	.	16a/	.	.	.	.	.	.	.	.	.	.	.	.	.
8D\J	.	.	16f#/	.	8ff#\	.	8D\	be-	8d\	be-	8a\	be-	8ff#\	be-	.	.
.	.	.	16a/JJ	.	.	.	.	.	.	.	.	.	.	.	.	.
!	!	!	!	!	!	!	!	!	!	!	!LO:LB:g=original	!	!	!	!	!
8D\L	.	.	16f#/LL	.	8.ff#\L	.	4D\	-ne-	4d\	-ne-	4a\	-ne-	8.ff#\L	-ne-	4.d\	4.f#\
.	.	.	16a/	.	.	.	.	.	.	.	.	.	.	.	.	.
8D\	.	.	16f#/	.	.	.	.	.	.	.	.	.	.	.	.	.
.	.	.	16a/	.	16ee\K	.	.	.	.	.	.	.	16ee\Jk	.	.	.
8D\J	.	.	16f#/	.	8ff#\J	.	8D\	-di-	8d\	-di-	8a\	-di-	8ff#\	-di-	.	.
.	.	.	16a/JJ	.	.	.	.	.	.	.	.	.	.	.	.	.
*	*	*	*Xtremolo	*	*	*	*	*	*	*	*	*	*	*	*	*
=16	=16	=16	=16	=16	=16	=16	=16	=16	=16	=16	=16	=16	=16	=16	=16	=16
.	x	.	.	.	8qqaa/	.	.	.	.	.	.	.	.	.	.	.
8E\L	.	.	8b/L	.	8gg\L	.	8E\L	-ce-	4.B\	-ce-	8b\L	-ce-	8gg\L	-ce-	8e\L	8g\L
8F#\	.	.	8a/	.	8ff#\	.	8F#\	.	.	.	8a\	.	8ff#\	.	8d\	8a\
8G\J	6	.	8g/J	.	8ee\J	.	8G\J	.	.	.	8g\J	.	8ee\J	.	8e\J	8g\J
!LO:TX:t=P:problem:mixed beam	!	!	!	!	!	!	!	!	!	!	!	!	!	!	!	!
8A\L	4	.	8f#/L	.	8dd\L	.	4.A\	.	4.A\	.	8f#\L	.	8dd\L	.	8d/L	8f#\L
8AA/	5_ 3_	.	8g/	.	8ee\	.	.	.	.	.	8g\	.	8ee\	.	8A/	8e\
!	!	!	!	!	!	!	!	!	!	!	!	!	!	!	!LO:TX:b:i:t=Verte Cito	!
8A\J	.	.	8e/J	.	8cc#\J	.	.	.	.	.	8e\J	.	8cc#\J	.	8A/J	8e\J
!	!	!	!	!	!	!	!LO:PB:g=original	!	!	!	!	!	!	!	!LO:PB:g=original	!
=17	=17	=17	=17	=17	=17	=17	=17	=17	=17	=17	=17	=17	=17	=17	=17	=17
4D\	x	.	8f#/L	.	8dd\L	.	4D\	-tur	4A\	-tur	4f#\	-tur	4dd\	-tur	4F#/	4d\
.	.	.	16f#/L	.	16dd\L	.	.	.	.	.	.	.	.	.	.	.
.	.	.	16g/	.	16ee\	.	.	.	.	.	.	.	.	.	.	.
8r	.	.	16f#/	.	16dd\	.	8r	.	8r	.	8r	.	8r	.	8r	8r
.	.	.	16e/JJ	.	16cc#\JJ	.	.	.	.	.	.	.	.	.	.	.
8D|\L	.	.	8d/L	.	8dd\L	.	4r	.	4r	.	4r	.	4r	.	8D/L	8d\L
8F#|\	.	.	8f#/	.	8ff#\	.	.	.	.	.	.	.	.	.	8F#/	8f#\
8A|\J	.	.	8a/J	.	8aa\J	.	8r	.	8r	.	8r	.	8r	.	8A/J	8a\J
!	!	!	!	!	!	!	!	!	!LO:PB:g=original	!	!	!	!LO:LB:g=original	!	!	!
=18	=18	=18	=18	=18	=18	=18	=18	=18	=18	=18	=18	=18	=18	=18	=18	=18
16D\LL	.	.	16f#/LL	.	4ddd 4dd 4d\	.	8.d\	Glo-	8.d\	Glo-	8.a\	glo-	8ff#\	Glo-	4.F#/	4.d\
16C#\	.	.	16e/	.	.	.	.	.	.	.	.	.	.	.	.	.
16D\	.	.	16f#/	.	.	.	.	.	.	.	.	.	16ff#\	-ri-	.	.
16E\	.	.	16g/	.	.	.	16d\	-ri-	16d\	-ri-	16a\	-ri-	8ff#\	-a	.	.
16F#\	.	.	16a/	.	8r	.	8d\	-a	8d\	-a	8a\	-a	.	.	.	.
16D\JJ	.	.	16f#/JJ	.	.	.	.	.	.	.	.	.	8r	.	.	.
!	!	!	!	!	!LO:LB:g=original	!	!	!	!	!	!	!	!	!	!	!
16C#/LL	6_ 5_	.	16e/LL	.	4aa 4a\	.	8r	.	8r	.	8r	.	.	.	4.A/	4.e\
16BB/	.	.	16d/	.	.	.	.	.	.	.	.	.	8ee\	et	.	.
16C#/	.	.	16e/	.	.	.	8c#\	(et)	8e\	et	8a\	et	.	.	.	.
16AA/	.	.	16c#/	.	.	.	.	.	.	.	.	.	8ee\	di-	.	.
16BB/	.	.	16d/	.	8r	.	8c#\	di-	8e\	di-	8a\	di-	.	.	.	.
16C#/JJ	.	.	16e/JJ	.	.	.	.	.	.	.	.	.	16r	.	.	.
=19	=19	=19	=19	=19	=19	=19	=19	=19	=19	=19	=19	=19	=19	=19	=19	=19
16D\LL	3_	.	16f#/LL	.	4ddd 4dd 4d\	.	8.d\	-vi-	8.d\	-vi-	8.a\	-vi-	8.ff#\	-vi-	4.F#/	4.d\
16C#\	.	.	16e/	.	.	.	.	.	.	.	.	.	.	.	.	.
16D\	.	.	16f#/	.	.	.	.	.	.	.	.	.	.	.	.	.
16E\	.	.	16g/	.	.	.	16d\	-ti-	16d\	-ti-	16a\	-ti-	16ff#\	-ti-	.	.
16F#\	.	.	16a/	.	8r	.	8d\	-ae	8d\	-ae	8a\	-e	8ff#\	-e	.	.
16D\JJ	.	.	16f#/JJ	.	.	.	.	.	.	.	.	.	.	.	.	.
!	!	!	!	!	!	!	!	!	!	!	!LO:LB:g=original	!	!	!	!	!
16C#/LL	6_ 5_	.	16e/LL	.	4aa 4a\	.	8c#\	in	8e\	in	8a\	in	8ee\	in	4.A/	4.e\
16BB/	.	.	16d/	.	.	.	.	.	.	.	.	.	.	.	.	.
16C#/	.	.	16e/	.	.	.	8c#\	Do-	8e\	do-	8a\	do-	8ee\	Do-	.	.
16AA/	.	.	16c#/	.	.	.	.	.	.	.	.	.	.	.	.	.
16BB/	.	.	16d/	.	8r	.	8c#\	-mo	8e\	-mo	8a\	-mo	8ee\	-mo	.	.
16C#/JJ	.	.	16e/JJ	.	.	.	.	.	.	.	.	.	.	.	.	.
=20	=20	=20	=20	=20	=20	=20	=20	=20	=20	=20	=20	=20	=20	=20	=20	=20
16D\LL	3	.	16f#/LL	.	4ddd 4dd 4d\	.	4d\	e-	4d\	e-	4a\	e-	4ff#\	e-	4F#/	4d\
16C#\	.	.	16e/	.	.	.	.	.	.	.	.	.	.	.	.	.
16D\	.	.	16f#/	.	.	.	.	.	.	.	.	.	.	.	.	.
16E\	.	.	16g/	.	.	.	.	.	.	.	.	.	.	.	.	.
16F#\	.	.	16a/	.	8r	.	8d\	-jus	8d\	-juſ	8a\	-juſ	8ff#\	-jus	8r	8r
16E\JJ	.	.	16g/JJ	.	.	.	.	.	.	.	.	.	.	.	.	.
8D\L	8 3	.	8f#/L	.	8ddd\L	.	8D\L	(et)	4A\	et	8dd\L	et	8ff#\L	et	4r	4r
8E\	6 3	.	8g/	.	8ccc#\	.	8E\J	.	.	.	8cc#\J	.	8gg\	.	.	.
!	!	!	!LO:TX:b:i:t=Verte Cito	!	!	!	!	!	!	!	!	!	!	!	!	!
8F#\J	n5r 3	.	8a/J	.	8cccn\J	.	8F#\	Jus-	8d\	Juſ-	8ccn\	Jus-	8aa\J	Jus-	8r	8r
!LO:LB:g=original	!	!	!LO:PB:g=original	!	!	!	!LO:LB:g=original	!	!LO:LB:g=original	!	!	!	!LO:LB:g=original	!	!	!
=21	=21	=21	=21	=21	=21	=21	=21	=21	=21	=21	=21	=21	=21	=21	=21	=21
8G\L	3	.	8b\L	.	4bb\	.	8G\	-ti-	8B\	-ti-	8b\	-ti-	8gg\	-ti-	4.e\	4.g\
8G\	6_	.	8ee\	.	.	.	8F#\	-ti-	8B\	-ti-	8b\	-ti-	8gg\	-ti-	.	.
8G\J	.	.	8ee\J	.	8gg\	.	8G\	-a	8B\	-a	8g\	-a	8ee\	-a	.	.
!LO:TX:t=P:problem:mixed beam	!	!	!	!	!	!	!	!	!	!	!	!	!	!	!	!
8A\L	6 4	.	8dd\L	.	8ff#\L	.	4.A\	e-	4.A\	e-	8f#\L	e-	8dd\L	e-	8d/L	8f#\L
8AA/	5_ #_	.	8ee\	.	8gg\	.	.	.	.	.	8g\	.	8ee\	.	8A/	8e\
8A\J	.	.	8cc#\J	.	8ee\J	.	.	.	.	.	8e\J	.	8cc#\J	.	8A/J	8e\J
=22	=22	=22	=22	=22	=22	=22	=22	=22	=22	=22	=22	=22	=22	=22	=22	=22
8D\L	.	.	4dd\	.	4ff#\	.	4.D\	-jus	4.A\	-jus	4.f#\	-juſ	4.dd\	-jus	4F#/	4d\
8D\	3_	.	.	.	.	.	.	.	.	.	.	.	.	.	.	.
8D\J	.	.	8ff#\	.	8aa\	.	.	.	.	.	.	.	.	.	8r	4r
8D\L	8 3	.	8ff#\L	.	8ddd\L	.	8D\	ma-	8A\	ma-	8dd\	ma-	8ff#\	ma-	4r	.
!	!	!	!	!	!	!	!	!	!	!	!LO:SIC:v:l:s=-net	!	!	!	!	!
8E\	6 3	.	8gg\	.	8ccc#\	.	8E\	-ne-	8A\	-ne-	8cc#X\	-nit	8gg\	-net	.	8r
8F#\J	n5r 3	.	8aa\J	.	8cccn\J	.	8F#\	-tin	8d\	-tin	8ccn\	in	8aa\	in	8r	8r
=23	=23	=23	=23	=23	=23	=23	=23	=23	=23	=23	=23	=23	=23	=23	=23	=23
8G\L	3	.	8.gg\L	.	8.ddd\L	.	8G\	Sae-	8.B\	Se-	8.b\	Sae-	8.gg\	Se-	4.e\	4.g\
8G\	6_	.	.	.	.	.	8G\	-cu-	.	.	.	.	.	.	.	.
.	.	.	16ff#\K	.	16aa\K	.	.	.	16B\	-cu-	16a\	-cu-	16ff#\	-cu-	.	.
8G\J	.	.	8ee\J	.	8gg\J	.	8G\	-lum	8B\	-lum	8g\	-lum	8ee\	-lum	.	.
!LO:TX:t=P:problem:mixed beam	!	!	!	!	!	!	!	!	!	!	!LO:LB:g=original	!	!	!	!	!
8A\L	6 4	.	8dd\L	.	8ff#\L	.	4A\	Sae-	4A\	Se-	8f#\L	Se-	8dd\L	Se-	8d/L	8f#\L
8AA/	5_ #_	.	8ee\	.	8gg\	.	.	.	.	.	8g\J	.	8ee\J	.	8A/	8e\
8AA/J	.	.	8cc#\J	.	8ee\J	.	8A\	-cu-	8A\	-cu-	8e\	-cu-	8cc#\	-cu-	8A/J	8e\J
!	!	!	!	!	!	!	!	!	!	!	!	!	!	!	!	!LO:LB:g=original
=24	=24	=24	=24	=24	=24	=24	=24	=24	=24	=24	=24	=24	=24	=24	=24	=24
!	!	!LO:DY:a	!	!	!	!	!	!	!	!	!	!	!	!	!	!
4D\	x	p	8f#/L	.	8dd\L	.	4D\	-li	4A\	-li	4f#\	-li	4dd\	-li	4F#/	4d\
.	.	.	8a/	.	8ff#\	.	.	.	.	.	.	.	.	.	.	.
8r	.	.	8f#/J	.	8dd\J	.	8r	.	8r	.	8r	.	8r	.	8r	8r
!	!	!	!	!	!LO:LB:g=original	!LO:DY:a	!	!	!	!	!	!	!	!	!	!
4.D\	.	.	8f#/L	.	8a/L	p	4r	.	4r	.	4r	.	4r	.	4r	4r
.	.	.	8d/	.	8f#/	.	.	.	.	.	.	.	.	.	.	.
.	.	.	8d/J	.	8f#/J	.	8r	.	8r	.	8r	.	8r	.	8r	8r
!	!	!	!	!	!	!	!LO:LB:g=original	!	!LO:LB:g=original	!	!	!	!LO:LB:g=original	!	!	!
=25	=25	=25	=25	=25	=25	=25	=25	=25	=25	=25	=25	=25	=25	=25	=25	=25
!	!	!	!	!	!	!	!	!	!	!	!LO:TX:a:t=3	!	!LO:TX:a:t=3	!	!	!
4A\	.	.	8e/L	.	8g\L	.	1.r	.	1.r	.	1.r	.	1.r	.	1.r	1.r
.	.	.	8g/	.	8ee\	.	.	.	.	.	.	.	.	.	.	.
8r	.	.	8e/J	.	8cc#\J	.	.	.	.	.	.	.	.	.	.	.
4.AA/	.	.	8e/L	.	8g/L	.	.	.	.	.	.	.	.	.	.	.
.	.	.	8c#/	.	8e/	.	.	.	.	.	.	.	.	.	.	.
.	.	.	8c#/J	.	8e/J	.	.	.	.	.	.	.	.	.	.	.
=26	=26	=26	=26	=26	=26	=26	=26	=26	=26	=26	=26	=26	=26	=26	=26	=26
4D\	.	.	8d/L	.	8f#/L	.	.	.	.	.	.	.	.	.	.	.
.	.	.	8f#/	.	8a/	.	.	.	.	.	.	.	.	.	.	.
8r	.	.	8f#/J	.	8a/J	.	.	.	.	.	.	.	.	.	.	.
8D\L	8 3	.	8f#/L	.	8dd\L	.	.	.	.	.	.	.	.	.	.	.
8E\	6 3	.	8g/	.	8cc#\	.	.	.	.	.	.	.	.	.	.	.
8F#\J	r5n 3	.	8a/J	.	8ccn\J	.	.	.	.	.	.	.	.	.	.	.
=27	=27	=27	=27	=27	=27	=27	=27	=27	=27	=27	=27	=27	=27	=27	=27	=27
4.G\	3	.	8g/L	.	8b\L	.	2.r	.	2.r	.	2.r	.	2.r	.	4.e\	4.g\
.	.	.	8b/	.	8gg\	.	.	.	.	.	.	.	.	.	.	.
.	6	.	8g/J	.	8ee\J	.	.	.	.	.	.	.	.	.	.	.
.	.	.	.	.	8qqdd/	.	.	.	.	.	.	.	.	.	.	.
4.A\	#	.	8e/L	.	8cc#\L	.	.	.	.	.	.	.	.	.	4.A/	4.e\
.	.	.	8d/	.	8b\	.	.	.	.	.	.	.	.	.	.	.
.	.	.	8e/J	.	8cc#\J	.	.	.	.	.	.	.	.	.	.	.
=28	=28	=28	=28	=28	=28	=28	=28	=28	=28	=28	=28	=28	=28	=28	=28	=28
!	!	!	!	!	!	!LO:DY:a	!	!	!	!	!	!	!	!	!	!
4D\	.	.	4f#/	.	8dd\L	f	4r	.	4r	.	8d\L	Ex-	4r	.	4F#/	4d\
.	.	.	.	.	8ff#\	.	.	.	.	.	8f#\	.	.	.	.	.
8r	.	.	8r	.	8gg#X\J	.	8r	.	8r	.	8g#X\J	.	8r	.	8r	8r
8A\L	.	.	8cc#\L	.	4aa\	.	8A\	Ex-	8A\	Ex-	4a\	-or-	8cc#\	Ex-	4.A/	4.e\
8c#\	6_ 5_	.	8ee\	.	.	.	8c#\	-or-	8A\	-or-	.	.	8ee\	-or-	.	.
!LO:TX:b:i:t=Verte	!	!	!	!	!	!	!	!	!	!	!	!	!	!	!	!
8c#\J	.	.	8ee\J	.	8ggn\	.	8c#\	-tum	8A\	-tum	8gn\	-tum	8ee\	-tum	.	.
!LO:PB:g=original	!	!	!	!	!	!	!	!	!	!	!	!	!	!	!	!
=29	=29	=29	=29	=29	=29	=29	=29	=29	=29	=29	=29	=29	=29	=29	=29	=29
4d\	3	.	4.dd\	.	8ff#\L	.	4d\	est	4d\	est	8f#\	eſt	4.dd\	est	4D/	4d\
*	*	*	*	*	*	*	*	*	*	*	*	*ij	*	*	*	*
.	.	.	.	.	8ff#\	.	.	.	.	.	8f#\L	Ex-	.	.	.	.
8B\	6\ 3	.	.	.	8gg#X\J	.	8B\	.	8e\	.	8g#X\J	.	.	.	8r	8r
*	*	*	*	*	*	*	*	*ij	*	*ij	*	*	*	*ij	*	*
8A\L	3	.	8cc#\L	.	4aa\	.	8A\	Ex-	8A\	Ex-	4a\	-or-	8cc#\	Ex-	4.A/	4.e\
8c#\	6_ rn5_	.	8ee\	.	.	.	8c#\	-or-	8A\	-or-	.	.	8ee\	-or-	.	.
!	!	!	!	!	!	!	!	!	!	!	!LO:TX:b:i:t=Verte	!	!	!	!	!
8c#\J	.	.	8ee\J	.	8ggn\	.	8c#\	-tum	8A\	-tum	8gn\	-tum	8ee\	-tum	.	.
!	!	!	!	!	!	!	!	!	!	!	!LO:PB:g=original	!	!	!	!LO:LB:g=original	!
=30	=30	=30	=30	=30	=30	=30	=30	=30	=30	=30	=30	=30	=30	=30	=30	=30
4d\	6 3	.	8dd\L	.	8ff#\L	.	4d\	est	8A\L	est	8f#\	eſt	8dd\	est	4D/	4d\
*	*	*	*	*	*	*	*	*Xij	*	*Xij	*	*Xij	*	*Xij	*	*
.	.	.	8ff#\	.	8bb\	.	.	.	8B\J	.	8b\	in	8ff#\	in	.	.
8d#\	5	.	8ff#\J	.	8aa\J	.	8d#X\	in	8B\	in	8a\	te-	8ff#\	te-	8r	8r
!	!	!	!	!	!LO:LB:g=original	!	!	!	!	!	!	!	!	!	!	!
8e\L	#_	.	4.ee\	.	4gg#X\	.	8e\	te-	8B\	te-	4g#X\	-ne	4ee\	-ne-	4.e\	4.e\
8e\	.	.	.	.	.	.	8e\	-ne-	8B\	-ne-	.	.	.	.	.	.
8dn\J	.	.	.	.	16ff#\LL	.	8dn\	-briſ	8B\	-briſ	8g#\	briſ	8ee\	-briſ	.	.
.	.	.	.	.	16gg#\JJ	.	.	.	.	.	.	.	.	.	.	.
!	!	!	!LO:LB:g=original	!	!	!	!LO:LB:g=original	!	!LO:LB:g=original	!	!	!	!	!	!	!
=31	=31	=31	=31	=31	=31	=31	=31	=31	=31	=31	=31	=31	=31	=31	=31	=31
8c#\L	6	.	8ee\L	.	8aa\L	.	8c#\	lu-	4e\	lu-	8a\L	lu-	8ee\L	lu-	4.e\	4.e\
8B\	6\	.	8dd\	.	8gg#X\	.	8B\L	.	.	.	8g#X\J	.	8dd\J	.	.	.
8A\J	.	.	8cc#\J	.	8aa\J	.	8A\J	-men	8e\	-men	8a\	-men	8cc#\	-men	.	.
!	!	!	!	!	!	!	!	!	!	!	!	!	!LO:SIC:v:l:s=rec-	!	!	!
8e\L	6 4	.	8cc#\L	.	8aa\L	.	8e\	rec-	8e\	rec-	8a\	rec-	8cc#\	re-	8e\L	8e\L
8E\J	5 #	.	8b\J	.	8gg#\J	.	8E\	-tis	8e\	-tiſ	8g#\	-tiſ	8b\	-tiſ	8e\J	8e\J
8r	.	.	8r	.	8r	.	8r	.	8r	.	8r	.	8r	.	8r	8r
!	!	!	!	!	!	!	!	!	!	!	!	!	!LO:LB:g=original	!	!	!
=32	=32	=32	=32	=32	=32	=32	=32	=32	=32	=32	=32	=32	=32	=32	=32	=32
!	!	!LO:DY:a	!	!	!	!	!	!	!	!	!	!	!	!	!	!
8E\L	5_ #_	p	4g#X/	.	4b\	.	4.E\	mi-	4.e\	mi-	4g#X\	mi-	4b\	mi-	0.r	0.r
8E\	.	.	.	.	.	.	.	.	.	.	.	.	.	.	.	.
.	.	.	.	.	8qqdd/	.	.	.	.	.	.	.	.	.	.	.
!	!	!	!LO:TUP:b:problem:klamra łukowa	!	!	!	!	!	!	!	!	!	!	!	!	!
8E\J	6 4	.	24a/LL	.	24cc#\LL	.	.	.	.	.	8a\	.	8cc#\	.	.	.
.	.	.	24g#/	.	24b\	.	.	.	.	.	.	.	.	.	.	.
.	.	.	24a/JJ	.	24cc#\JJ	.	.	.	.	.	.	.	.	.	.	.
8E\L	7_ 5_	.	8b/L	.	8dd\L	.	8E\	-ſe-	4e\	-ſe-	8b\L	-ſe-	8dd\L	-ſe-	.	.
8E\	.	.	8g#/	.	8ee\	.	4E\	-ri-	.	.	8g#\J	.	8ee\J	.	.	.
8E\J	.	.	8g#/J	.	8cc#\J	.	.	.	8e\	-ri-	8g#\	-ri-	8b\	-ri-	.	.
=33	=33	=33	=33	=33	=33	=33	=33	=33	=33	=33	=33	=33	=33	=33	=33	=33
!	!	!	!	!	!	!	!	!	!LO:SIC:v:l:s=-cors	!	!	!	!	!	!	!
4AA/	5 3	.	8b/L	.	8dd\L	.	4A\	-corſ	4e\	-cor	4a\	-cors	4cc#\	-corſ	.	.
.	.	.	8a/	.	8cc#\	.	.	.	.	.	.	.	.	.	.	.
8r	.	.	8a/J	.	8cc#\J	.	8r	.	8r	.	8r	.	8r	.	.	.
4r	.	.	16cc#\LL	.	16aa\LL	.	4r	.	4r	.	4r	.	4r	.	.	.
.	.	.	16ee\	.	16gg#X\	.	.	.	.	.	.	.	.	.	.	.
.	.	.	16dd\	.	16ff#\	.	.	.	.	.	.	.	.	.	.	.
.	.	.	16cc#\	.	16ee\	.	.	.	.	.	.	.	.	.	.	.
8r	.	.	16b\	.	16dd\	.	8r	.	8r	.	8r	.	8r	.	.	.
.	.	.	16a\JJ	.	16cc#\JJ	.	.	.	.	.	.	.	.	.	.	.
!	!	!	!	!	!	!	!	!	!	!	!LO:LB:g=original	!	!	!	!	!
=34	=34	=34	=34	=34	=34	=34	=34	=34	=34	=34	=34	=34	=34	=34	=34	=34
8E\L	5_ #_	.	4g#X/	.	4b\	.	8E\	et	8e\	et	8g#X\	et	8b\	et	.	.
8E\	.	.	.	.	.	.	8E\	mi-	8e\	mi-	8g#\	mi-	8b\	mi-	.	.
!	!	!	!LO:TUP:b:problem:klamra łukowa	!	!	!	!	!	!	!	!	!	!	!	!	!
8E\J	6 4	.	24a/LL	.	24cc#\LL	.	8E\	-ſe-	8e\	-ſe-	8a\	-ſe-	8cc#\	-ſe-	.	.
.	.	.	24g#/	.	24b\	.	.	.	.	.	.	.	.	.	.	.
.	.	.	24a/JJ	.	24cc#\JJ	.	.	.	.	.	.	.	.	.	.	.
8E\L	7_ #_	.	8b/L	.	8dd\L	.	4.E\	-ra-	4.e\	-ra-	8b\	-ra-	8dd\L	-ra-	.	.
8E\	.	.	8g#/	.	8ee\	.	.	.	.	.	4g#\	.	8ee\	.	.	.
8E\J	.	.	8g#/J	.	8b\J	.	.	.	.	.	.	.	8b\J	.	.	.
!	!	!	!	!	!	!	!	!	!LO:LB:g=original	!	!	!	!	!	!	!
=35	=35	=35	=35	=35	=35	=35	=35	=35	=35	=35	=35	=35	=35	=35	=35	=35
4AA/	x	.	8b/L	.	8dd\L	.	4A\	-tor	4e\	-tor	4a\	-tor	4cc#\	-tor	.	.
.	.	.	8a/	.	8cc#\	.	.	.	.	.	.	.	.	.	.	.
8r	.	.	8a/J	.	8cc#\J	.	8r	.	8r	.	8r	.	8r	.	.	.
!	!	!	!	!	!LO:LB:g=original	!	!	!	!	!	!	!	!	!	!	!
4r	.	.	16a\LL	.	16cc#\LL	.	4r	.	4r	.	4r	.	4r	.	.	.
.	.	.	16b\	.	16dd\	.	.	.	.	.	.	.	.	.	.	.
.	.	.	16cc#\	.	16ee\	.	.	.	.	.	.	.	.	.	.	.
.	.	.	16dd\	.	16ff#\	.	.	.	.	.	.	.	.	.	.	.
8r	.	.	16ee\	.	16gg#X\	.	8r	.	8r	.	8r	.	8r	.	.	.
.	.	.	16cc#\JJ	.	16aa\JJ	.	.	.	.	.	.	.	.	.	.	.
!LO:LB:g=original	!	!	!	!	!	!	!LO:LB:g=original	!	!	!	!	!	!LO:LB:g=original	!	!	!
=36	=36	=36	=36	=36	=36	=36	=36	=36	=36	=36	=36	=36	=36	=36	=36	=36
!	!	!LO:DY:a	!	!	!	!	!	!	!	!	!	!	!	!	!	!
8D\L	.	f	8dd\L	.	4ff# 4a 4d\	.	8d\	mi-	8d\	mi-	8a\	mi-	8ff#\	mi-	4.d\	4.f#\
8d\	.	.	8dd\	.	.	.	8d\	-ſe-	8d\	-ſe-	8a\	-ſe-	8ff#\	-ſe-	.	.
8d\J	.	.	8dd\J	.	32ff#\LLL	.	8d\	-ri-	8d\	-ri-	8a\	-ri-	8ff#\	-ri-	.	.
.	.	.	.	.	32ee\	.	.	.	.	.	.	.	.	.	.	.
.	.	.	.	.	32ff#\	.	.	.	.	.	.	.	.	.	.	.
.	.	.	.	.	32gg#X\JJJ	.	.	.	.	.	.	.	.	.	.	.
8c#\L	6_	.	8ee\L	.	8aa\L	.	4c#\	-corſ	4e\	-corſ	4a\	-corſ	4ee\	-corſ	4.A/	4.e\
8c#\	.	.	8ee\	.	8ccc#\	.	.	.	.	.	.	.	.	.	.	.
8c#\J	.	.	8ee\J	.	8aa\J	.	8c#\	et	8e\	et	8a\	et	8ee\	(et)	.	.
=37	=37	=37	=37	=37	=37	=37	=37	=37	=37	=37	=37	=37	=37	=37	=37	=37
8B\L	6\_	.	8dd\L	.	8gg#X\L	.	4B\	mi-	4e\	mi-	4g#X\	mi-	4dd\	mi-	4.e\	4.e\
8B\	.	.	8dd\	.	16ff#\L	.	.	.	.	.	.	.	.	.	.	.
.	.	.	.	.	16ee\	.	.	.	.	.	.	.	.	.	.	.
8B\J	.	.	8dd\J	.	16ff#\	.	8B\	-ſe-	8e\	-ſe-	8g#\	-ſe-	8dd\	-se-	.	.
.	.	.	.	.	16gg#\JJ	.	.	.	.	.	.	.	.	.	.	.
8A\L	8 3	.	8cc#\L	.	8aa\L	.	8A\L	-ra-	4e\	-ri-	8a\L	-ra-	8cc#\L	-ra-	4.e\	4.e\
8B\	6\ 3	.	8dd\	.	8gg#\	.	8B\	.	.	.	8g#\	.	8dd\	.	.	.
8c#\J	r5n 3	.	8ee\J	.	8ggn\J	.	8c#\J	.	8A\	-a-	8gn\J	.	8ee\J	.	.	.
!	!	!	!	!	!	!	!	!	!	!	!LO:LB:g=original	!	!	!	!	!
=38	=38	=38	=38	=38	=38	=38	=38	=38	=38	=38	=38	=38	=38	=38	=38	=38
4.d\	3	.	8dd\L	.	8ff#\L	.	4d\	-tor	8d\	-tor	8f#\	.	8ff#\	.	4.d\	4.f#\
.	.	.	8cc#\	.	8ee\	.	.	.	8e\	(et)	8a\	tor	8ee\	tor	.	.
.	6	.	8b\J	.	8dd\J	.	8d\	et	8f#\	.	8b\	(et)	8dd\	(et)	.	.
!	!	!	!LO:LB:g=original	!	!	!	!	!	!	!	!	!	!	!	!	!
8e\L	#_	.	8a/L	.	8cc#\L	.	4.e\	Jus-	4.e\	Ju-	8a\L	Juſ-	8cc#\L	Jus-	4.e\	4.e\
8E\	.	.	16cc#/L	.	16ee\L	.	.	.	.	.	8b\	.	8dd\	.	.	.
.	.	.	16b/	.	16dd\	.	.	.	.	.	.	.	.	.	.	.
8E\J	.	.	16a/	.	16cc#\	.	.	.	.	.	8g#X\J	.	8b\J	.	.	.
.	.	.	16g#X/JJ	.	16b\JJ	.	.	.	.	.	.	.	.	.	.	.
!	!	!	!	!	!	!	!	!	!LO:LB:g=original	!	!	!	!	!	!	!LO:LB:g=original
=39	=39	=39	=39	=39	=39	=39	=39	=39	=39	=39	=39	=39	=39	=39	=39	=39
!LO:TX:a:i:t=Solo	!	!	!	!	!LO:TX:a:t=dol.	!	!	!	!	!	!	!	!	!	!	!
4A\	x	.	8a/L	.	8cc#\L	.	4A\	-tuſ.	4e\	-stus.	4a\	-tus	4cc#\	-tus	4A/	4e\
.	.	.	8e/	.	8ee\	.	.	.	.	.	.	.	.	.	.	.
8r	.	.	8e/J	.	8ee\J	.	8r	.	8r	.	8r	.	8r	.	8r	8r
4.A\	5	.	8e/L	.	8ee\L	.	4r	.	4r	.	4r	.	4r	.	4r	4r
.	6	.	8f#/	.	8ff#\	.	.	.	.	.	.	.	.	.	.	.
.	3	.	8c#/J	.	8cc#\J	.	8r	.	8r	.	8r	.	8r	.	8r	8r
!	!	!	!	!	!	!	!	!	!	!	!	!	!LO:LB:g=original	!	!	!
=40	=40	=40	=40	=40	=40	=40	=40	=40	=40	=40	=40	=40	=40	=40	=40	=40
!	!	!	!	!	!	!	!LO:TX:a:t=15	!	!	!	!LO:TX:a:t=3	!	!	!	!	!
4.B\	3	.	8e/L	.	8ee\L	.	0.r	.	0.r	.	1.r	.	1.r	.	0.r	0.r
.	.	.	8d/	.	8dd\	.	.	.	.	.	.	.	.	.	.	.
.	.	.	8d/J	.	8dd\J	.	.	.	.	.	.	.	.	.	.	.
!	!	!	!	!	!LO:LB:g=original	!	!	!	!	!	!	!	!	!	!	!
4.G#X\	5	.	8d/L	.	8dd\L	.	.	.	.	.	.	.	.	.	.	.
.	6	.	8e/	.	8ee\	.	.	.	.	.	.	.	.	.	.	.
.	3	.	8B/J	.	8b\J	.	.	.	.	.	.	.	.	.	.	.
=41	=41	=41	=41	=41	=41	=41	=41	=41	=41	=41	=41	=41	=41	=41	=41	=41
4.A\	3	.	8d/L	.	8dd\L	.	.	.	.	.	.	.	.	.	.	.
.	.	.	8c#/	.	8cc#\	.	.	.	.	.	.	.	.	.	.	.
.	.	.	8c#/J	.	8cc#\J	.	.	.	.	.	.	.	.	.	.	.
8AA/L	8 3	.	8c#/L	.	8aa\L	.	.	.	.	.	.	.	.	.	.	.
8BB/	6\ 3	.	8d/	.	8gg#X\	.	.	.	.	.	.	.	.	.	.	.
8C#/J	r5n 3	.	8e/J	.	8ggn\J	.	.	.	.	.	.	.	.	.	.	.
=42	=42	=42	=42	=42	=42	=42	=42	=42	=42	=42	=42	=42	=42	=42	=42	=42
4.D\	3	.	4.f#/	.	8ff#\L	.	.	.	.	.	2.r	.	2.r	.	.	.
.	.	.	.	.	8bb\	.	.	.	.	.	.	.	.	.	.	.
.	6	.	.	.	8aa\J	.	.	.	.	.	.	.	.	.	.	.
4.E\	6 4	.	4.d/	.	8gg#X\L	.	.	.	.	.	.	.	.	.	.	.
.	.	.	.	.	16ff#\L	.	.	.	.	.	.	.	.	.	.	.
.	5 #	.	.	.	16ee\	.	.	.	.	.	.	.	.	.	.	.
.	.	.	.	.	16ff#\	.	.	.	.	.	.	.	.	.	.	.
.	.	.	.	.	16gg#\JJ	.	.	.	.	.	.	.	.	.	.	.
=43	=43	=43	=43	=43	=43	=43	=43	=43	=43	=43	=43	=43	=43	=43	=43	=43
!	!	!	!	!	!LO:TX:t=P:problem:mixed beam	!LO:DY:a	!	!	!	!	!LO:TX:a:i:t=Solo:rj	!	!LO:TX:a:i:t=Solo:rj	!	!	!
4AA/	.	.	8c#/L	.	8aa\L	p	.	.	.	.	4.cc#\	Ju-	4.ee\	Ju-	.	.
.	.	.	8c#/	.	8e/	.	.	.	.	.	.	.	.	.	.	.
!	!	!LO:DY:a	!	!	!	!	!	!	!	!	!	!	!	!	!	!
8r	.	p	8c#/J	.	8e/J	.	.	.	.	.	.	.	.	.	.	.
4r	.	.	4c#/	.	4e/	.	.	.	.	.	8cc#\	.	8ee\	.	.	.
.	.	.	.	.	.	.	.	.	.	.	8a\	-cun-	8cc#\	-cun-	.	.
8r	.	.	8r	.	8r	.	.	.	.	.	8b\	-dus	8dd\	-duſ	.	.
!LO:LB:g=original	!	!	!	!	!	!	!	!	!	!	!	!	!	!	!	!
=44	=44	=44	=44	=44	=44	=44	=44	=44	=44	=44	=44	=44	=44	=44	=44	=44
4A\	.	.	8r	.	8r	.	0.r	.	0.r	.	4.cc#\	ho-	4.ee\	ho-	0.r	0.r
.	.	.	8c#/L	.	8e/L	.	.	.	.	.	.	.	.	.	.	.
8r	.	.	8c#/J	.	8e/J	.	.	.	.	.	.	.	.	.	.	.
4r	.	.	4c#/	.	4e/	.	.	.	.	.	8cc#\	.	8ee\	.	.	.
.	.	.	.	.	.	.	.	.	.	.	8a\	-mo	8cc#\	-mo	.	.
8r	.	.	8r	.	8r	.	.	.	.	.	8b\	qui	8dd\	qui	.	.
!	!	!	!	!	!	!	!	!	!	!	!LO:LB:g=original	!	!	!	!	!
=45	=45	=45	=45	=45	=45	=45	=45	=45	=45	=45	=45	=45	=45	=45	=45	=45
4A\	.	.	8r	.	8r	.	.	.	.	.	4.cc#\	mi-	4.ee\	mi-	.	.
.	.	.	8c#/L	.	8e/L	.	.	.	.	.	.	.	.	.	.	.
8r	.	.	8c#/J	.	8e/J	.	.	.	.	.	.	.	.	.	.	.
4r	.	.	4c#/	.	4e/	.	.	.	.	.	4cc#\	.	8ee\L	.	.	.
.	.	.	.	.	.	.	.	.	.	.	.	.	8aa\J	.	.	.
8r	.	.	8r	.	8r	.	.	.	.	.	8dd\	-ſe-	8ff#\	-ſe-	.	.
!	!	!	!LO:LB:g=original	!	!LO:PB:g=original	!	!	!	!	!	!	!	!	!	!	!
=46	=46	=46	=46	=46	=46	=46	=46	=46	=46	=46	=46	=46	=46	=46	=46	=46
!LO:TX:t=P:problem:skreślony takt, napis "Berek, Zosta[.]wca"	!	!	!	!	!	!	!	!	!	!	!	!	!	!	!	!
4A\	6 4	.	8r	.	8r	.	.	.	.	.	4.dd\	-re-	4.ff#\	-re-	.	.
.	.	.	8d/L	.	8f#/L	.	.	.	.	.	.	.	.	.	.	.
8r	.	.	8d/J	.	8f#/J	.	.	.	.	.	.	.	.	.	.	.
4AA/	5 3	.	8r	.	8r	.	.	.	.	.	8cc#\	-tur	8ee\	-tur	.	.
.	.	.	8c#/L	.	8e/L	.	.	.	.	.	8r	.	8r	.	.	.
8r	.	.	8c#/J	.	8e/J	.	.	.	.	.	8a\	(et)	8cc#\	(et)	.	.
!	!	!	!	!	!	!	!	!	!	!	!	!	!LO:LB:g=original	!	!	!
=47	=47	=47	=47	=47	=47	=47	=47	=47	=47	=47	=47	=47	=47	=47	=47	=47
4E\	#_	.	8r	.	8r	.	.	.	.	.	4b\	Com-	4dd\	Com-	.	.
.	.	.	8B/L	.	8g#X/L	.	.	.	.	.	.	.	.	.	.	.
8r	.	.	8B/J	.	8g#/J	.	.	.	.	.	16cc#\LL	-mo-	16ee\LL	-mo-	.	.
.	.	.	.	.	.	.	.	.	.	.	16b\JJ	.	16dd\JJ	.	.	.
4E\	.	.	8r	.	8r	.	.	.	.	.	8g#X\	-dat	8b\	-dat	.	.
.	.	.	8B/L	.	8g#/L	.	.	.	.	.	8r	.	8r	.	.	.
8r	.	.	8B/J	.	8g#/J	.	.	.	.	.	8g#\	diſ-	8ee\	diſ-	.	.
=48	=48	=48	=48	=48	=48	=48	=48	=48	=48	=48	=48	=48	=48	=48	=48	=48
4A\	x	.	8r	.	8r	.	0.r	.	0.r	.	4cc#\	-po-	4ee\	-po-	0.r	0.r
.	.	.	8c#/L	.	8a/L	.	.	.	.	.	.	.	.	.	.	.
8r	.	.	8c#/J	.	8a/J	.	.	.	.	.	16dd\LL	.	16ff#\LL	.	.	.
.	.	.	.	.	.	.	.	.	.	.	16cc#\JJ	.	16ee\JJ	.	.	.
4A\	.	.	8r	.	8r	.	.	.	.	.	8a\	-net	8cc#\	-net	.	.
.	.	.	8c#/L	.	8a/L	.	.	.	.	.	8r	.	8r	.	.	.
8r	.	.	8c#/J	.	8a/J	.	.	.	.	.	8cc#\	Ser-	8ee\	Ser-	.	.
!	!	!	!	!	!	!	!	!	!	!	!LO:LB:g=original	!	!	!	!	!
=49	=49	=49	=49	=49	=49	=49	=49	=49	=49	=49	=49	=49	=49	=49	=49	=49
4A\	6 4	.	8r	.	8r	.	.	.	.	.	4dd\	-mo-	4ff#\	-mo-	.	.
.	.	.	8d/L	.	8f#/L	.	.	.	.	.	.	.	.	.	.	.
8r	.	.	8d/J	.	8f#/J	.	.	.	.	.	8dd\	-nes	8ff#\	-nes	.	.
4A\	5 3	.	8r	.	8r	.	.	.	.	.	8cc#\L	Su-	8ee\L	ſu-	.	.
.	.	.	8c#/L	.	8e/L	.	.	.	.	.	16b\L	.	16dd\L	.	.	.
.	.	.	.	.	.	.	.	.	.	.	16a\JJ	.	16cc#\JJ	.	.	.
8r	.	.	8c#/J	.	8e/J	.	.	.	.	.	16g#X\LL	-os	16b\LL	-os	.	.
.	.	.	.	.	.	.	.	.	.	.	16a\JJ	.	16cc#\JJ	.	.	.
=50	=50	=50	=50	=50	=50	=50	=50	=50	=50	=50	=50	=50	=50	=50	=50	=50
4G#X\	6 5	.	8r	.	8r	.	.	.	.	.	4b\	in	4dd\	in	.	.
.	.	.	8B/L	.	8e/L	.	.	.	.	.	.	.	.	.	.	.
8r	.	.	8B/J	.	8e/J	.	.	.	.	.	16cc#\LL	Ju-	16ee\LL	Ju-	.	.
.	.	.	.	.	.	.	.	.	.	.	16b\JJ	.	16dd\JJ	.	.	.
!	!	!	!	!	!	!	!	!	!	!	!	!	!LO:LB:g=original	!	!	!
4A\	3	.	8r	.	8r	.	.	.	.	.	8.a\	-di-	8.cc#\	-di-	.	.
.	.	.	8c#/L	.	8e/L	.	.	.	.	.	.	.	.	.	.	.
.	.	.	.	.	.	.	.	.	.	.	16b\	-ci-	16dd\	-ci-	.	.
8r	.	.	8c#/J	.	8e/J	.	.	.	.	.	8cc#\	-o	8ee\	-o	.	.
=51	=51	=51	=51	=51	=51	=51	=51	=51	=51	=51	=51	=51	=51	=51	=51	=51
4A\	6 4	.	8r	.	8r	.	.	.	.	.	4dd\	qu-	4ff#\	qu-	.	.
.	.	.	8d/L	.	8f#/L	.	.	.	.	.	.	.	.	.	.	.
8r	.	.	8d/J	.	8f#/J	.	.	.	.	.	8dd\	-ia	8ff#\	-ia	.	.
4A\	5 3	.	8r	.	8r	.	.	.	.	.	8cc#\L	in	8ee\L	in	.	.
.	.	.	8c#/L	.	8e/L	.	.	.	.	.	16b\L	.	16dd\L	.	.	.
.	.	.	.	.	.	.	.	.	.	.	16a\JJ	.	16cc#\JJ	.	.	.
8r	.	.	8c#/J	.	8e/J	.	.	.	.	.	16g#X\LL	ae-	16b\LL	e-	.	.
.	.	.	.	.	.	.	.	.	.	.	16a\JJ	.	16cc#\JJ	.	.	.
!LO:LB:g=original	!	!	!LO:LB:g=original	!	!LO:LB:g=original	!	!	!	!	!	!LO:LB:g=original	!	!	!	!	!
=52	=52	=52	=52	=52	=52	=52	=52	=52	=52	=52	=52	=52	=52	=52	=52	=52
4G#X\	6 5	.	8r	.	8r	.	1.r	.	1.r	.	4b\	-ter-	4dd\	-ter-	0.r	0.r
.	.	.	8B/L	.	8e/L	.	.	.	.	.	.	.	.	.	.	.
8r	.	.	8B/J	.	8e/J	.	.	.	.	.	16cc#\LL	.	16ee\LL	.	.	.
.	.	.	.	.	.	.	.	.	.	.	16b\JJ	.	16dd\JJ	.	.	.
4A\	3	.	8r	.	8r	.	.	.	.	.	8a\	-num	8cc#\	-num	.	.
.	.	.	8c#/L	.	8e/L	.	.	.	.	.	8r	.	8r	.	.	.
8r	.	.	8c#/J	.	8e/J	.	.	.	.	.	8cc#\	non	8ee\	non	.	.
=53	=53	=53	=53	=53	=53	=53	=53	=53	=53	=53	=53	=53	=53	=53	=53	=53
4D\	.	.	8r	.	8r	.	.	.	.	.	4.dd\	Com-	4.ff#\	Com-	.	.
.	.	.	8d/L	.	8f#/L	.	.	.	.	.	.	.	.	.	.	.
8r	.	.	8d/J	.	8f#/J	.	.	.	.	.	.	.	.	.	.	.
4r	.	.	4d/	.	4f#/	.	.	.	.	.	8.dd\L	.	8.ff#\L	.	.	.
.	.	.	.	.	.	.	.	.	.	.	16cc#\Jk	.	16ee\Jk	.	.	.
8r	.	.	8r	.	8r	.	.	.	.	.	8b\	-mo-	8dd\	-mo-	.	.
!	!	!	!	!	!	!	!	!	!	!	!	!	!LO:LB:g=original	!	!	!
=54	=54	=54	=54	=54	=54	=54	=54	=54	=54	=54	=54	=54	=54	=54	=54	=54
4E\	6 4	.	8r	.	8r	.	2.r	.	2.r	.	4.a\	-ve-	4.cc#\	-ve-	.	.
.	.	.	8c#/L	.	8a/L	.	.	.	.	.	.	.	.	.	.	.
8r	.	.	8c#/J	.	8a/J	.	.	.	.	.	.	.	.	.	.	.
4EE/	5 #	.	8r	.	8r	.	.	.	.	.	4g#X\	.	4b\	.	.	.
.	.	.	8B/L	.	8g#X/L	.	.	.	.	.	.	.	.	.	.	.
8r	.	.	8B/J	.	8g#/J	.	.	.	.	.	8g#\	-bi-	8b\	-bi-	.	.
!	!	!	!	!	!	!	!LO:LB:g=original	!	!	!	!	!	!	!	!	!
=55	=55	=55	=55	=55	=55	=55	=55	=55	=55	=55	=55	=55	=55	=55	=55	=55
!	!	!	!	!	!	!	!	!	!LO:TX:a:i:t=Solo.:rj	!	!	!	!	!	!	!
4AA/	.	.	4c#/	.	4e/	.	8r	.	8r	.	4a\	-tur	4cc#\	-tur	.	.
.	.	.	.	.	.	.	16A\LL	In	16c#\LL	In	.	.	.	.	.	.
.	.	.	.	.	.	.	16G#X\JJ	.	16B\JJ	.	.	.	.	.	.	.
8r	.	.	8r	.	8r	.	16A\LL	me-	16c#\LL	me-	8r	.	8r	.	.	.
.	.	.	.	.	.	.	16B\JJ	.	16d\JJ	.	.	.	.	.	.	.
16A\LL	3_	.	4.A/	.	4.c#/	.	4c#\	-mo-	4e\	-mo-	4r	.	4r	.	.	.
16G#X\	.	.	.	.	.	.	.	.	.	.	.	.	.	.	.	.
16A\	.	.	.	.	.	.	.	.	.	.	.	.	.	.	.	.
16B\	.	.	.	.	.	.	.	.	.	.	.	.	.	.	.	.
16c#\	.	.	.	.	.	.	16d\LL	-ri-	16f#\LL	-ri-	8r	.	8r	.	.	.
16A\JJ	.	.	.	.	.	.	16c#\JJ	.	16e\JJ	.	.	.	.	.	.	.
=56	=56	=56	=56	=56	=56	=56	=56	=56	=56	=56	=56	=56	=56	=56	=56	=56
!	!	!	!	!	!	!	!	!	!	!	!LO:TX:a:t=9	!	!LO:TX:a:t=9.	!	!	!
4E\	#	.	4G#X/	.	4B/	.	8B\	-a	8d\	-a	0.r	.	0.r	.	0.r	0.r
*	*	*	*	*	*	*	*	*ij	*	*ij	*	*	*	*	*	*
.	.	.	.	.	.	.	16G#X\LL	In	16B\LL	In	.	.	.	.	.	.
.	.	.	.	.	.	.	16F#\JJ	.	16A\JJ	.	.	.	.	.	.	.
8r	.	.	8r	.	8r	.	16G#\LL	me-	16B\LL	me-	.	.	.	.	.	.
.	.	.	.	.	.	.	16A\JJ	.	16c#\JJ	.	.	.	.	.	.	.
16E\LL	7_ #_	.	4.B/	.	4.d/	.	4B\	-mo-	4d\	-mo-	.	.	.	.	.	.
16F#\	.	.	.	.	.	.	.	.	.	.	.	.	.	.	.	.
16G#X\	.	.	.	.	.	.	.	.	.	.	.	.	.	.	.	.
16A\	.	.	.	.	.	.	.	.	.	.	.	.	.	.	.	.
16B\	.	.	.	.	.	.	16c#\LL	-ri-	16e\LL	-ri-	.	.	.	.	.	.
16G#\JJ	.	.	.	.	.	.	16B\JJ	.	16d\JJ	.	.	.	.	.	.	.
!	!	!	!	!	!	!	!	!	!LO:LB:g=original	!	!	!	!	!	!	!
=57	=57	=57	=57	=57	=57	=57	=57	=57	=57	=57	=57	=57	=57	=57	=57	=57
4A\	3	.	4A/	.	4c#/	.	8A\	-a	8c#\	-a	.	.	.	.	.	.
*	*	*	*	*	*	*	*	*Xij	*	*Xij	*	*	*	*	*	*
.	.	.	.	.	.	.	16G#X\LL	ae-	16B\LL	ae-	.	.	.	.	.	.
.	.	.	.	.	.	.	16A\	.	16c#\	.	.	.	.	.	.	.
8r	.	.	8r	.	8r	.	16B\	.	16d\	.	.	.	.	.	.	.
.	.	.	.	.	.	.	16c#\JJ	.	16e\JJ	.	.	.	.	.	.	.
8F#\L	8_ 6_	.	8A/L	.	4d/	.	4d\	-ter-	4f#\	-ter-	.	.	.	.	.	.
8G#X\	.	.	8B/	.	.	.	.	.	.	.	.	.	.	.	.	.
8A\J	5 3	.	8A/J	.	8c#/	.	8c#\	-na	8e\	-na	.	.	.	.	.	.
!	!	!	!	!	!	!	!LO:LB:g=original	!	!	!	!	!	!	!	!	!
=58	=58	=58	=58	=58	=58	=58	=58	=58	=58	=58	=58	=58	=58	=58	=58	=58
.	.	.	.	.	.	.	.	.	8qqe/	.	.	.	.	.	.	.
8D\L	8_ 6_	.	8f#/L	.	8f#/L	.	4B\	erit	4d\	erit	.	.	.	.	.	.
8D\	.	.	8f#/	.	8b/	.	.	.	.	.	.	.	.	.	.	.
8D#X\J	7 5	.	8f#/J	.	8a/J	.	8A\	Juſ-	8c#\	Juſ-	.	.	.	.	.	.
!LO:TX:t=P:problem:mixed beam	!	!	!	!	!	!	!	!	!	!	!	!	!	!	!	!
8E\L	6 4	.	8c#/L	.	8a/L	.	8A\	.	8c#\	.	.	.	.	.	.	.
8EE/J	5 #	.	8B/J	.	8g#X/J	.	8G#X\	-tus	8B\	-tuſ	.	.	.	.	.	.
8r	.	.	8r	.	8r	.	8r	.	8r	.	.	.	.	.	.	.
!LO:LB:g=original	!	!	!LO:LB:g=original	!	!LO:LB:g=original	!	!	!	!	!	!	!	!	!	!	!
=59	=59	=59	=59	=59	=59	=59	=59	=59	=59	=59	=59	=59	=59	=59	=59	=59
4.E\	#	.	4.B/	.	4.g#X/	.	2.r	.	8B\L	ab	.	.	.	.	.	.
.	.	.	.	.	.	.	.	.	8e\J	.	.	.	.	.	.	.
.	.	.	.	.	.	.	.	.	8d\	au-	.	.	.	.	.	.
4.AA/	.	.	4.c#/	.	4.a/	.	.	.	8d\L	-di-	.	.	.	.	.	.
.	.	.	.	.	.	.	.	.	8c#\J	.	.	.	.	.	.	.
.	.	.	.	.	.	.	.	.	8A\	-ti-	.	.	.	.	.	.
=60	=60	=60	=60	=60	=60	=60	=60	=60	=60	=60	=60	=60	=60	=60	=60	=60
4.E\	#	.	4.e/	.	4.b\	.	8B\L	ab	4.G#X/	-o-	0.r	.	0.r	.	0.r	0.r
.	.	.	.	.	.	.	8e\J	.	.	.	.	.	.	.	.	.
.	.	.	.	.	.	.	8d\	au-	.	.	.	.	.	.	.	.
4.AA/	.	.	4.e/	.	4.cc#\	.	8c#\L	-di-	4.A\	-ne	.	.	.	.	.	.
.	.	.	.	.	.	.	8B\J	.	.	.	.	.	.	.	.	.
.	.	.	.	.	.	.	8A\	-ti-	.	.	.	.	.	.	.	.
!	!	!	!	!	!	!	!	!	!LO:LB:g=original	!	!	!	!	!	!	!
=61	=61	=61	=61	=61	=61	=61	=61	=61	=61	=61	=61	=61	=61	=61	=61	=61
*	*	*	*^	*	*^	*	*	*	*	*	*	*	*	*	*	*
8E\L	#_	.	4.b/	4.g#X\	.	4.dd\	4.ryy	.	4G#X\	-o-	4.B\	ma-	.	.	.	.	.	.
8e\	.	.	.	.	.	.	.	.	.	.	.	.	.	.	.	.	.	.
8d\J	.	.	.	.	.	.	.	.	8G#\	ne	.	.	.	.	.	.	.	.
8c#\L	6_	.	4.a/	4.ryy	.	4.ee/	4.cc#\	.	4.A\	ma-	4.c#\	.	.	.	.	.	.	.
8B\	.	.	.	.	.	.	.	.	.	.	.	.	.	.	.	.	.	.
8A\J	.	.	.	.	.	.	.	.	.	.	.	.	.	.	.	.	.	.
*	*	*	*v	*v	*	*v	*v	*	*	*	*	*	*	*	*	*	*	*
=62	=62	=62	=62	=62	=62	=62	=62	=62	=62	=62	=62	=62	=62	=62	=62	=62
4G#X\	6 5	.	8g#X/L	.	8eeL 8b\	.	4B\	-la	4d\	-la	.	.	.	.	.	.
.	.	.	16g#/L	.	16b\L	.	.	.	.	.	.	.	.	.	.	.
.	.	.	16f#/	.	16a\	.	.	.	.	.	.	.	.	.	.	.
8r	.	.	16g#/	.	16b\	.	8r	.	8r	.	.	.	.	.	.	.
.	.	.	16a/JJ	.	16cc#\JJ	.	.	.	.	.	.	.	.	.	.	.
8r	.	.	16b/LL	.	16dd\LL	.	8r	.	8r	.	.	.	.	.	.	.
.	.	.	16a/	.	16cc#\	.	.	.	.	.	.	.	.	.	.	.
8r	.	.	16a/	.	16cc#\	.	8r	.	8r	.	.	.	.	.	.	.
.	.	.	16g#X/JJ	.	16b\JJ	.	.	.	.	.	.	.	.	.	.	.
8E\	#	.	8r	.	8r	.	8B\	non	8d\	non	.	.	.	.	.	.
!	!	!	!	!	!	!	!LO:LB:g=original	!	!	!	!	!	!	!	!	!
=63	=63	=63	=63	=63	=63	=63	=63	=63	=63	=63	=63	=63	=63	=63	=63	=63
8r	.	.	16cc#\LL	.	16ee\LL	.	8r	.	8r	.	.	.	.	.	.	.
.	.	.	16b\	.	16dd\	.	.	.	.	.	.	.	.	.	.	.
8r	.	.	16b\	.	16dd\	.	8r	.	8r	.	.	.	.	.	.	.
.	.	.	16a\JJ	.	16cc#\JJ	.	.	.	.	.	.	.	.	.	.	.
8A\	.	.	8r	.	8r	.	8A\	non	8c#\	non	.	.	.	.	.	.
4.d\	.	.	8b\L	.	8dd\L	.	8B\L	ti-	8d\L	ti-	.	.	.	.	.	.
.	6	.	8dd\	.	8ff#\	.	8d\	.	8f#\	.	.	.	.	.	.	.
.	.	.	8b\J	.	8dd\J	.	8B\J	.	8d\J	.	.	.	.	.	.	.
=64	=64	=64	=64	=64	=64	=64	=64	=64	=64	=64	=64	=64	=64	=64	=64	=64
4.e\	6 4	.	8a\L	.	8cc#\L	.	4.A\	me-	4.c#\	-me-	2.r	.	2.r	.	0.r	0.r
.	.	.	8cc#\	.	8ee\	.	.	.	.	.	.	.	.	.	.	.
.	.	.	8cc#\J	.	8ee\J	.	.	.	.	.	.	.	.	.	.	.
4.E\	5 #	.	8g#X/L	.	8b\L	.	4.G#X\	.	4.B\	.	.	.	.	.	.	.
.	.	.	8b/	.	8dd\	.	.	.	.	.	.	.	.	.	.	.
.	.	.	8b/J	.	8dd\J	.	.	.	.	.	.	.	.	.	.	.
!	!	!	!	!	!	!	!	!	!	!	!LO:LB:g=original	!	!	!	!	!
=65	=65	=65	=65	=65	=65	=65	=65	=65	=65	=65	=65	=65	=65	=65	=65	=65
!	!	!	!	!	!	!	!	!	!	!	!LO:TX:a:i:t=Solo:rj	!	!LO:TX:a:i:t=Solo	!	!	!
4.A\	.	.	4a/	.	4cc#\	.	4A\	-bit	4c#\	-bit	8r	.	8r	.	.	.
.	.	.	.	.	.	.	.	.	.	.	8r	.	8r	.	.	.
.	.	.	8cc#\	.	8ee\	.	8r	.	8r	.	8cc#\	pa-	8ee\	pa-	.	.
4.AA/	.	.	8cc#/L	.	8ee\L	.	4r	.	8r	.	8cc#\	-ra-	8ee\	-ra-	.	.
.	.	.	8a/	.	8cc#\	.	.	.	8r	.	8a\	-tum	8cc#\	-tum	.	.
.	.	.	8a/J	.	8cc#\J	.	8A\	Cor	8c#\	Cor	8r	.	8r	.	.	.
!	!	!	!	!	!LO:LB:g=original	!	!	!	!LO:LB:g=original	!	!	!	!LO:PB:g=original	!	!	!
=66	=66	=66	=66	=66	=66	=66	=66	=66	=66	=66	=66	=66	=66	=66	=66	=66
4.E\	#_	.	8a/L	.	8cc#\L	.	8A\	e-	8c#\	e-	8r	.	8r	.	.	.
.	.	.	8g#X/	.	8b\	.	8G#X\	-juſ	8B\	-juſ	8r	.	8r	.	.	.
*	*	*	*	*	*	*	*	*	*	*	*	*	*	*ij	*	*
.	.	.	8b/J	.	8dd\J	.	8r	.	8r	.	8b\	pa-	8dd\	pa-	.	.
4.EE/	.	.	8b/L	.	8dd\L	.	4r	.	8r	.	8b\	-ra-	8dd\	-ra-	.	.
.	.	.	8g#/	.	8b\	.	.	.	8r	.	8g#X\	-tum	8b\	-tum	.	.
*	*	*	*	*	*	*	*	*	*	*ij	*	*	*	*Xij	*	*
.	.	.	8b/J	.	8dd\J	.	8B\	Cor	8d\	Cor	8r	.	8r	.	.	.
!	!	!	!LO:LB:g=original	!	!	!	!	!	!	!	!	!	!	!	!	!
=67	=67	=67	=67	=67	=67	=67	=67	=67	=67	=67	=67	=67	=67	=67	=67	=67
4AA/	x	.	8b\L	.	8dd\L	.	8B\	e-	8d\	e-	8r	.	8r	.	.	.
.	.	.	8a\	.	8cc#\	.	8A\	-juſ	8c#\	-juſ	8r	.	8r	.	.	.
*	*	*	*	*	*	*	*	*	*	*Xij	*	*	*	*	*	*
8r	.	.	8cc#\J	.	8ee\J	.	8r	.	8r	.	8cc#\	pa-	8ee\	pa-	.	.
4r	.	.	8cc#\L	.	8ee\L	.	4r	.	4r	.	8cc#\	-ra-	8ee\	-ra-	.	.
.	.	.	8a\	.	8cc#\	.	.	.	.	.	8a\	-tum	8cc#\	-tum	.	.
8r	.	.	8cc#\J	.	8ee\J	.	8r	.	8r	.	8cc#\	cor	8ee\	cor	.	.
!LO:LB:g=original	!	!	!	!	!	!	!LO:LB:g=original	!	!	!	!	!	!	!	!	!
=68	=68	=68	=68	=68	=68	=68	=68	=68	=68	=68	=68	=68	=68	=68	=68	=68
8r	.	.	8cc#\L	.	8ee\L	.	4r	.	4r	.	8cc#\	e-	8ee\	e-	1.r	1.r
4r	.	.	8a\J	.	8cc#\	.	.	.	.	.	8a\	-jus	8cc#\	-jus	.	.
.	.	.	8r	.	8ee\J	.	8r	.	8r	.	8r	.	8ee\	Spe-	.	.
!	!	!	!	!	!	!	!	!	!	!	!LO:LB:g=original	!	!	!	!	!
8r	.	.	8r	.	8ee\L	.	8r	.	8r	.	8r	.	8ee\	-ra-	.	.
8r	.	.	8r	.	8ff#\	.	8r	.	8r	.	8r	.	8ff#\	-re	.	.
8A\	6 5	.	8cc#\	.	8ee\J	.	8A\	Spe-	8e\	Spe-	8cc#\	Spe-	8ee\	in	.	.
!	!	!	!	!	!	!	!	!	!	!	!	!	!LO:LB:g=original	!	!	!
=69	=69	=69	=69	=69	=69	=69	=69	=69	=69	=69	=69	=69	=69	=69	=69	=69
!	!	!	!	!	!	!	!	!	!	!	!	!	!LO:N:vis=4	!	!	!
8A\L	#4r_ 2_	.	4.b\	.	4.dd#X\	.	8A\	-ra-	4.f#\	-ra-	4.b\	-ra-	4.dd#X\	Do-	.	.
8B\	.	.	.	.	.	.	8B\	-re	.	.	.	.	.	.	.	.
8A\J	.	.	.	.	.	.	8A\	in	.	.	.	.	.	.	.	.
4.G#X\	6	.	4.b\	.	8r	.	4.G#X\	Do-	4e\	-re	4b\	-re	8r	.	.	.
.	.	.	.	.	8ee\L	.	.	.	.	.	.	.	8ee\L	.	.	.
.	n5r	.	.	.	8ddn\J	.	.	.	8e\	in	8b\	in	8ddn\J	.	.	.
!	!	!	!	!	!	!	!	!	!LO:LB:g=original	!	!	!	!	!	!	!
=70	=70	=70	=70	=70	=70	=70	=70	=70	=70	=70	=70	=70	=70	=70	=70	=70
8r	.	.	4.a/	.	4.cc#\	.	8r	.	4.e\	Do-	4.a\	Do-	4.cc#\	.	4.A/	4.e\
8A\L	3_	.	.	.	.	.	8A\L	.	.	.	.	.	.	.	.	.
8Gn\J	.	.	.	.	.	.	8Gn\J	.	.	.	.	.	.	.	.	.
4.F#\	6	.	4.a/	.	8r	.	4.F#\	.	4.d\	.	4.a\	.	8r	.	4.d\	4.f#\
.	.	.	.	.	8dd\L	.	.	.	.	.	.	.	8dd\L	.	.	.
.	n5r	.	.	.	8ccn\J	.	.	.	.	.	.	.	8ccn\J	.	.	.
=71	=71	=71	=71	=71	=71	=71	=71	=71	=71	=71	=71	=71	=71	=71	=71	=71
4.G\	3	.	4.b\	.	8b\L	.	4.G\	.	4.e\	.	4.b\	.	8b\L	.	4.e\	4.g\
.	.	.	.	.	8gg\	.	.	.	.	.	.	.	8gg\	.	.	.
.	6	.	.	.	8ee\J	.	.	.	.	.	.	.	8ee\J	.	.	.
.	.	.	.	.	8qdd/	.	.	.	.	.	.	.	.	.	.	.
4.A\	#	.	4.g/	.	8cc#\L	.	4A\	.	4e\	.	4g\	-mi-	4cc#X\	.	4.A/	4.e\
.	.	.	.	.	16b\L	.	.	.	.	.	.	.	.	.	.	.
.	.	.	.	.	16a\	.	.	.	.	.	.	.	.	.	.	.
.	.	.	.	.	16b\	.	8A\	-mi-	8e\	-mi-	8g\	-no	8cc#\	-mi-	.	.
.	.	.	.	.	16cc#\JJ	.	.	.	.	.	.	.	.	.	.	.
=72	=72	=72	=72	=72	=72	=72	=72	=72	=72	=72	=72	=72	=72	=72	=72	=72
!LO:TX:a:i:t=pleno	!	!	!	!	!	!	!	!	!	!	!	!	!	!	!	!
8D\L	.	.	8f#/L	.	8.dd\L	.	8D\	-no	8d\	-no	8f#\	Con-	8dd\	-no	4.D/	4.d\
8D\	.	.	8f#/	.	.	.	8D\	Con-	8d\	Con-	8f#\	-fir	8dd\	Con-	.	.
.	.	.	.	.	16ff#\L	.	.	.	.	.	.	.	.	.	.	.
8D\J	n7r 5	.	8a/J	.	16dd\	.	8D\	-fir-	8d\	-fir-	8a\	ma-	8ccn\	-fir-	.	.
!	!	!	!	!	!LO:TX:a:t=P:problem:zbędna kreska taktowa	!	!	!	!	!	!	!	!	!	!	!
.	.	.	.	.	16ccn\JJ	.	.	.	.	.	.	.	.	.	.	.
!	!	!	!	!	!LO:LB:g=original	!	!	!	!	!	!	!	!	!	!	!
8D\L	6_ 4_	.	16g/LL	.	16b\LL	.	4.D\	-ma-	4.d\	-ma-	4g\	.	4b\	-ma-	4.D/	4.d\
.	.	.	16f#/	.	16a#X\	.	.	.	.	.	.	.	.	.	.	.
8D\	.	.	16g/	.	16b\	.	.	.	.	.	.	.	.	.	.	.
.	.	.	16b/	.	16dd\	.	.	.	.	.	.	.	.	.	.	.
8D\J	#7r 2	.	16a/	.	16cc#X\	.	.	.	.	.	8e\	-tum	8cc#X\	.	.	.
.	.	.	16g/JJ	.	16ee\JJ	.	.	.	.	.	.	.	.	.	.	.
!	!	!	!	!	!	!	!LO:LB:g=original	!	!	!	!LO:LB:g=original	!	!	!	!LO:LB:g=original	!
=73	=73	=73	=73	=73	=73	=73	=73	=73	=73	=73	=73	=73	=73	=73	=73	=73
8D\L	8_ 3_	.	8f#/L	.	8.dd\L	.	8D\	-tum	8d\	-tum	8f#\	eſt	8dd\	-tum	4.D/	4.d\
8D\	.	.	8f#/	.	.	.	8D\	eſt	8d\	eſt	8f#\	Cor	8dd\	eſt	.	.
.	.	.	.	.	16ff#\L	.	.	.	.	.	.	.	.	.	.	.
8D\J	n7r 5	.	8a/J	.	16dd\	.	8D\	Cor	8d\	cor	8a\	.	8ccn\	Cor	.	.
.	.	.	.	.	16ccn\JJ	.	.	.	.	.	.	.	.	.	.	.
!	!	!	!	!	!	!	!	!	!LO:TX:b:i:t=Verte Subitto	!	!	!	!LO:LB:g=original	!	!	!
8D\L	6_ 4_	.	16g/LL	.	16b\LL	.	4.D\	e-	4.d\	e-	4g\	e-	4b\	e-	4.D/	4.d\
.	.	.	16f#/JJ	.	16a#X\	.	.	.	.	.	.	.	.	.	.	.
8D\	.	.	16g/LL	.	16b\	.	.	.	.	.	.	.	.	.	.	.
.	.	.	16b/	.	16dd\	.	.	.	.	.	.	.	.	.	.	.
8D\J	#7r 2	.	16a/	.	16cc#X\	.	.	.	.	.	8e\	-jus	8cc#X\	.	.	.
.	.	.	16g/JJ	.	16ee\JJ	.	.	.	.	.	.	.	.	.	.	.
!	!	!	!	!	!	!	!	!	!LO:LB:g=original	!	!	!	!	!	!	!
=74	=74	=74	=74	=74	=74	=74	=74	=74	=74	=74	=74	=74	=74	=74	=74	=74
8D\L	8_ 3_	.	8f#/L	.	16ee\LL	.	4D\	-juſ	4d\	-jus	4f#\	.	4dd\	-jus	4.D/	4.d\
.	.	.	.	.	16dd\	.	.	.	.	.	.	.	.	.	.	.
8D\	.	.	8f#/	.	16cc#\	.	.	.	.	.	.	.	.	.	.	.
.	.	.	.	.	16dd\	.	.	.	.	.	.	.	.	.	.	.
8d\J	.	.	8f#/J	.	16ff#\	.	8d\	non	8d\	non	8a\	non	8ff#\	non	.	.
.	.	.	.	.	16aa\JJ	.	.	.	.	.	.	.	.	.	.	.
4c#\	6 5	.	4e/	.	16aa\LL	.	4c#\	Com-	4e\	Com-	4a\	Com-	4gg\	Com-	4A/	4e\
.	.	.	.	.	16gg\	.	.	.	.	.	.	.	.	.	.	.
.	.	.	.	.	16ee\	.	.	.	.	.	.	.	.	.	.	.
.	.	.	.	.	16gg\	.	.	.	.	.	.	.	.	.	.	.
8d\	3	.	8f#/	.	16ff#\	.	8d\	mo-	8d\	mo-	8a\	-mo-	8ff#\	-mo-	8F#/	8d\
.	.	.	.	.	16aa\JJ	.	.	.	.	.	.	.	.	.	.	.
!LO:LB:g=original	!	!	!LO:LB:g=original	!	!	!	!	!	!	!	!	!	!	!	!	!
=75	=75	=75	=75	=75	=75	=75	=75	=75	=75	=75	=75	=75	=75	=75	=75	=75
4c#\	6 5	.	4e/	.	16aa\LL	.	4c#\	-ve-	4e\	-ve-	4a\	-ve-	4gg\	-ve-	4A/	4e\
.	.	.	.	.	16gg\	.	.	.	.	.	.	.	.	.	.	.
.	.	.	.	.	16ee\	.	.	.	.	.	.	.	.	.	.	.
.	.	.	.	.	16gg\	.	.	.	.	.	.	.	.	.	.	.
8d\	3	.	8f#/	.	16ff#\	.	8d\	-bi-	8d\	-bi-	8a\	-bi-	8ff#\	-bi-	8F#/	8d\
.	.	.	.	.	16dd\JJ	.	.	.	.	.	.	.	.	.	.	.
!	!	!	!	!	!	!	!	!	!	!	!	!	!	!	!	!LO:TX:t=P:problem:mixed beam
8A\L	.	.	8e/L	.	8cc#\L	.	8A\	-tur	8c#\	-tur	8a\	-tur	8ee\	-tur	8A/L	8e\L
8A|\	.	.	8a/	.	8a\	.	8A\	d[o]-	8A\	Do-	8a\	Do-	8a\	Do-	8A/	8A/
8A|\J	.	.	8a/J	.	8a\J	.	8A\	-nec	8A\	-nec	8a\	-nec	8a\	-nec	8A/J	8A/J
!	!	!	!	!	!	!	!	!	!	!	!	!	!	!	!	!LO:LB:g=original
=76	=76	=76	=76	=76	=76	=76	=76	=76	=76	=76	=76	=76	=76	=76	=76	=76
!	!	!	!	!	!	!	!	!	!	!	!	!	!	!	!LO:N:vis=8	!
8d|\L	.	.	8dd\L	.	8dd\L	.	8d\	deſ-	8d\	deſ-	8dd\	deſ-	8dd\	des-	4D/	8d\
16d|\L	.	.	16dd\L	.	16dd\L	.	16d\LL	-pi-	16d\LL	-pi-	16dd\LL	-pi-	16dd\LL	-pi-	.	8r
16c#|\	.	.	16cc#\	.	16cc#\	.	16c#\JJ	.	16c#\JJ	.	16cc#\JJ	.	16cc#\JJ	.	.	.
16B|\	.	.	16b\	.	16b\	.	16B\LL	-ci-	16B\LL	-ci-	16b\LL	-ci-	16b\LL	-ci-	8r	8r
!	!	!	!	!	!	!	!LO:TX:b:i:t=Verte Subitto	!	!	!	!	!	!	!	!	!
16A#X|\JJ	.	.	16a#X\JJ	.	16a#X\JJ	.	16A#X\JJ	.	16A#X\JJ	.	16a#X\JJ	.	16a#X\JJ	.	.	.
!	!	!	!	!	!	!	!LO:LB:g=original	!	!	!	!LO:LB:g=original	!	!	!	!	!
8B|\L	.	.	8b/L	.	8b/L	.	8B\	-at	8B\	-at	8b\	-at	8b\	-at	4r	4r
16B|\L	.	.	16b/L	.	16b/L	.	16B\LL	i-	16B\LL	i-	16b\LL	i-	16b\LL	i-	.	.
16An|\	.	.	16an/	.	16an/	.	16An\JJ	.	16An\JJ	.	16an\JJ	.	16an\JJ	.	.	.
16G|\	.	.	16g/	.	16g/	.	16G\LL	-ni-	16G\LL	-ni-	16g\LL	-ni-	16g\LL	-ni-	8r	8r
16F#|\JJ	.	.	16f#/JJ	.	16f#/JJ	.	16F#\JJ	.	16F#\JJ	.	16f#\JJ	.	16f#\JJ	.	.	.
!	!	!	!	!	!	!	!	!	!LO:LB:g=original	!	!	!	!LO:LB:g=original	!	!	!
=77	=77	=77	=77	=77	=77	=77	=77	=77	=77	=77	=77	=77	=77	=77	=77	=77
16G|\LL	.	.	16g/LL	.	16g/LL	.	16G\LL	-mi-	16G/LL	-mi-	16g\LL	-mi-	16g\LL	-mi-	4r	4r
16F#|\	.	.	16f#/	.	16f#/	.	16F#\	.	16F#/	.	16f#\	.	16f#\	.	.	.
16G|\	.	.	16g/	.	16g/	.	16G\	.	16G/	.	16g\	.	16g\	.	.	.
16A|\	.	.	16a/	.	16a/	.	16A\	.	16A/	.	16a\	.	16a\	.	.	.
16B|\	.	.	16b/	.	16b/	.	16B\	.	16B/	.	16b\	.	16b\	.	8r	8r
16c#|\JJ	.	.	16cc#/JJ	.	16cc#/JJ	.	16c#\JJ	.	16c#/JJ	.	16cc#\JJ	.	16cc#\JJ	.	.	.
!	!	!	!	!	!LO:LB:g=original	!	!	!	!	!	!	!	!	!	!LO:TX:t=P:problem:mixed beam	!
8d\L	.	.	8dd/L	.	16dd\LL	.	8d\	-cos	8d\	-cos	8dd\	-coſ	8dd\	-cos	8d\L	8f#\L
.	.	.	.	.	16ff#\	.	.	.	.	.	.	.	.	.	.	.
!	!	!	!	!	!	!	!LO:SIC:v:l:s=Su-	!	!	!	!LO:SIC:v:l:s=Su-	!	!	!	!	!
8G\	6 5	.	8b/	.	16ee\	.	8G\L	tu-	4e\	Su-	8b\	tu-	8ee\L	ſu-	8e\	8g\
.	.	.	.	.	16gg\	.	.	.	.	.	.	.	.	.	.	.
8A\J	3	.	8g/J	.	16cc#\	.	8A\J	.	.	.	8g\	.	8cc#\J	.	8A/J	8e\J
.	.	.	.	.	16ee\JJ	.	.	.	.	.	.	.	.	.	.	.
=78	=78	=78	=78	=78	=78	=78	=78	=78	=78	=78	=78	=78	=78	=78	=78	=78
!LO:TX:a:i:t=Solo	!	!	!	!	!LO:TX:a:i:t=Solo	!	!	!	!	!	!	!	!	!	!	!
4D\	.	.	4f#/	.	8dd\L	.	4D\	-oſ	4d\	-os	4f#\	-os.	4dd\	-os.	4F#/	4d\
.	.	.	.	.	16dd\L	.	.	.	.	.	.	.	.	.	.	.
.	.	.	.	.	16cc#\	.	.	.	.	.	.	.	.	.	.	.
8r	.	.	8r	.	16dd\	.	8r	.	8r	.	8r	.	8r	.	8r	8r
.	.	.	.	.	16ee\JJ	.	.	.	.	.	.	.	.	.	.	.
!	!	!	!LO:TX:a:i:t=Solo:rj	!	!	!	!	!	!	!	!	!	!	!	!	!
8d\L	3	.	4a/	.	8ff#\L	.	4r	.	4r	.	4r	.	4r	.	4r	4r
8e\	3	.	.	.	8gg\	.	.	.	.	.	.	.	.	.	.	.
8d\J	#4r 2	.	8ee\	.	8gg#X\J	.	8r	.	8r	.	8r	.	8r	.	8r	8r
=79	=79	=79	=79	=79	=79	=79	=79	=79	=79	=79	=79	=79	=79	=79	=79	=79
8c#\L	6_ 3	.	8ee\L	.	4aa\	.	0.r	.	0.r	.	2.r	.	0.r	.	8r	8r
16B\L	_ 3	.	16dd\L	.	.	.	.	.	.	.	.	.	.	.	8A/L	8e\L
16A\	_ 3	.	16cc#\	.	.	.	.	.	.	.	.	.	.	.	.	.
16B\	_ 3	.	16dd\	.	8ggn\	.	.	.	.	.	.	.	.	.	8A/J	8e\J
16c#\JJ	5 3	.	16ee\JJ	.	.	.	.	.	.	.	.	.	.	.	.	.
!	!	!	!	!	!	!	!	!	!	!	!	!	!	!	!LO:TX:t=P:problem:mixed beam	!
8d\L	3	.	8dd\L	.	8ff#\L	.	.	.	.	.	.	.	.	.	8d\L	8f#\L
8G\	6	.	8ee\	.	8gg\	.	.	.	.	.	.	.	.	.	8e\	8g\
8A\J	3	.	8cc#\J	.	8ee\J	.	.	.	.	.	.	.	.	.	8A/J	8e\J
=80	=80	=80	=80	=80	=80	=80	=80	=80	=80	=80	=80	=80	=80	=80	=80	=80
*	*	*	*^	*	*	*	*	*	*	*	*	*	*	*	*	*
!	!	!LO:DY:a	!	!	!	!	!	!	!	!	!	!LO:TX:a:i:t=Solo:rj	!	!	!	!	!
4.D\	.	p	8a/L	8f#\L	.	8ff#\L	.	.	.	.	.	8r	.	.	.	4F#/	4d\
.	.	.	8a/	8f#\	.	8aa\J	.	.	.	.	.	8r	.	.	.	.	.
.	.	.	8a/J	8f#\J	.	8r	.	.	.	.	.	8a\	Diſ-	.	.	8r	8r
4.D\	.	.	8r	8ryy	.	8r	.	.	.	.	.	8f#\	-per-	.	.	4r	4r
.	.	.	8a/L	8f#\L	.	8r	.	.	.	.	.	8d\	-ſit	.	.	.	.
.	.	.	8a/J	8f#\J	.	8dd\	.	.	.	.	.	8r	.	.	.	8r	8r
!LO:LB:g=original	!	!	!	!	!	!	!	!	!	!	!	!LO:PB:g=original	!	!	!	!	!
=81	=81	=81	=81	=81	=81	=81	=81	=81	=81	=81	=81	=81	=81	=81	=81	=81	=81
4.C#/	6_	.	8r	8ryy	.	8ee\L	.	.	.	.	.	8r	.	.	.	0.r	0.r
.	.	.	8a/L	8e\L	.	8aa\J	.	.	.	.	.	8r	.	.	.	.	.
.	.	.	8a/J	8e\J	.	8r	.	.	.	.	.	8a\	Diſ-	.	.	.	.
4.C#/	.	.	8r	8ryy	.	8r	.	.	.	.	.	8g\	-per-	.	.	.	.
.	.	.	8a/L	8e\L	.	8r	.	.	.	.	.	8e\	-ſit	.	.	.	.
.	.	.	8a/J	8e\J	.	8ee\	.	.	.	.	.	8r	.	.	.	.	.
!	!	!	!LO:LB:g=original	!	!	!	!	!	!	!	!	!	!	!	!	!	!
=82	=82	=82	=82	=82	=82	=82	=82	=82	=82	=82	=82	=82	=82	=82	=82	=82	=82
4.D\	3_	.	8r	8ryy	.	8ff#\L	.	.	.	.	.	8r	.	.	.	.	.
.	.	.	8a/L	8f#\L	.	8aa\J	.	.	.	.	.	8r	.	.	.	.	.
.	.	.	8a/J	8f#\J	.	8r	.	.	.	.	.	8a\	Diſ-	.	.	.	.
4.D\	.	.	8r	8ryy	.	8r	.	.	.	.	.	8f#\	-per-	.	.	.	.
.	.	.	8a/L	8f#\L	.	8r	.	.	.	.	.	8d\	-ſit	.	.	.	.
.	.	.	8a/J	8f#\J	.	8dd\	.	.	.	.	.	8r	.	.	.	.	.
*	*	*	*v	*v	*	*	*	*	*	*	*	*	*	*	*	*	*
=83	=83	=83	=83	=83	=83	=83	=83	=83	=83	=83	=83	=83	=83	=83	=83	=83
4D\	6 4	.	8g/L	.	8b\L	.	0.r	.	0.r	.	4.b\	De-	0.r	.	.	.
.	.	.	8g/	.	8b\	.	.	.	.	.	.	.	.	.	.	.
8r	.	.	8g/J	.	8b\J	.	.	.	.	.	.	.	.	.	.	.
!	!	!	!	!	!LO:LB:g=original	!	!	!	!	!	!	!	!	!	!	!
4D\	5 3	.	8r	.	8r	.	.	.	.	.	8a\	.	.	.	.	.
.	.	.	8f#/L	.	8a/L	.	.	.	.	.	16a\LL	-dit	.	.	.	.
.	.	.	.	.	.	.	.	.	.	.	16b\JJ	.	.	.	.	.
8r	.	.	8f#/J	.	8a/J	.	.	.	.	.	16cc#\LL	pau-	.	.	.	.
.	.	.	.	.	.	.	.	.	.	.	16dd\JJ	.	.	.	.	.
!	!	!	!	!	!	!	!	!	!	!	!LO:LB:g=original	!	!	!	!	!
=84	=84	=84	=84	=84	=84	=84	=84	=84	=84	=84	=84	=84	=84	=84	=84	=84
4C#/	6 5	.	8r	.	8r	.	.	.	.	.	4a\	-pe-	.	.	.	.
.	.	.	8e/L	.	8a/L	.	.	.	.	.	.	.	.	.	.	.
8r	.	.	8e/J	.	8a/J	.	.	.	.	.	8g\	-ri-	.	.	.	.
4D\	3	.	8r	.	8r	.	.	.	.	.	4f#\	-buſ	.	.	.	.
.	.	.	16f#/LL	.	16a/LL	.	.	.	.	.	.	.	.	.	.	.
.	.	.	16g/	.	16b/	.	.	.	.	.	.	.	.	.	.	.
8r	.	.	16f#/	.	16a/	.	.	.	.	.	8r	.	.	.	.	.
.	.	.	16e/JJ	.	16g/JJ	.	.	.	.	.	.	.	.	.	.	.
=85	=85	=85	=85	=85	=85	=85	=85	=85	=85	=85	=85	=85	=85	=85	=85	=85
4D\	.	.	8d/L	.	8f#/L	.	.	.	.	.	4.f#\	Juſ-	.	.	0.r	0.r
.	.	.	8d/	.	8f#/	.	.	.	.	.	.	.	.	.	.	.
8r	.	.	8d/J	.	8f#/J	.	.	.	.	.	.	.	.	.	.	.
*	*	*	*tremolo	*	*	*	*	*	*	*	*	*	*	*	*	*
4r	.	.	8d/L	.	8f#/L	.	.	.	.	.	16f#\LL	-ti-	.	.	.	.
.	.	.	.	.	.	.	.	.	.	.	16g\JJ	.	.	.	.	.
.	.	.	8d/	.	8f#/	.	.	.	.	.	16f#\LL	-ti-	.	.	.	.
.	.	.	.	.	.	.	.	.	.	.	16e\JJ	.	.	.	.	.
8r	.	.	8d/J	.	8f#/J	.	.	.	.	.	16f#\LL	-a	.	.	.	.
.	.	.	.	.	.	.	.	.	.	.	16g#X\JJ	.	.	.	.	.
*	*	*	*Xtremolo	*	*	*	*	*	*	*	*	*	*	*	*	*
=86	=86	=86	=86	=86	=86	=86	=86	=86	=86	=86	=86	=86	=86	=86	=86	=86
4AA/	.	.	8r	.	8r	.	.	.	.	.	4.a\	e-	.	.	.	.
.	.	.	8c#/L	.	8e/L	.	.	.	.	.	.	.	.	.	.	.
8r	.	.	8c#/J	.	8e/J	.	.	.	.	.	.	.	.	.	.	.
*	*	*	*tremolo	*	*	*	*	*	*	*	*	*	*	*	*	*
4r	.	.	8c#/L	.	8e/L	.	.	.	.	.	8a\L	.	.	.	.	.
.	.	.	8c#/	.	8e/	.	.	.	.	.	8b\	.	.	.	.	.
8r	.	.	8c#/J	.	8e/J	.	.	.	.	.	8gn\J	.	.	.	.	.
*	*	*	*Xtremolo	*	*	*	*	*	*	*	*	*	*	*	*	*
=87	=87	=87	=87	=87	=87	=87	=87	=87	=87	=87	=87	=87	=87	=87	=87	=87
4D\	.	.	8r	.	8r	.	0.r	.	0.r	.	4.f#\	-jus	0.r	.	.	.
.	.	.	8d/L	.	8f#/L	.	.	.	.	.	.	.	.	.	.	.
8r	.	.	8d/J	.	8f#/J	.	.	.	.	.	.	.	.	.	.	.
*	*	*	*tremolo	*	*	*	*	*	*	*	*	*	*	*	*	*
4r	.	.	8d/L	.	8f#/L	.	.	.	.	.	16f#\LL	ma-	.	.	.	.
.	.	.	.	.	.	.	.	.	.	.	16g\	.	.	.	.	.
.	.	.	8d/	.	8f#/	.	.	.	.	.	16f#\	.	.	.	.	.
.	.	.	.	.	.	.	.	.	.	.	16e\	.	.	.	.	.
8r	.	.	8d/J	.	8f#/J	.	.	.	.	.	16f#\	.	.	.	.	.
.	.	.	.	.	.	.	.	.	.	.	16g#X\JJ	.	.	.	.	.
*	*	*	*Xtremolo	*	*	*	*	*	*	*	*	*	*	*	*	*
!	!	!	!	!	!	!	!	!	!	!	!LO:LB:g=original	!	!	!	!	!
=88	=88	=88	=88	=88	=88	=88	=88	=88	=88	=88	=88	=88	=88	=88	=88	=88
4AA/	.	.	8r	.	8r	.	.	.	.	.	4.a\	.	.	.	.	.
.	.	.	8c#/L	.	8e/L	.	.	.	.	.	.	.	.	.	.	.
8r	.	.	8c#/J	.	8e/J	.	.	.	.	.	.	.	.	.	.	.
*	*	*	*tremolo	*	*	*	*	*	*	*	*	*	*	*	*	*
4r	.	.	8c#/L	.	8e/L	.	.	.	.	.	8a\L	.	.	.	.	.
.	.	.	8c#/	.	8e/	.	.	.	.	.	8b\	.	.	.	.	.
8r	.	.	8c#/J	.	8e/J	.	.	.	.	.	8g\J	.	.	.	.	.
*	*	*	*Xtremolo	*	*	*	*	*	*	*	*	*	*	*	*	*
=89	=89	=89	=89	=89	=89	=89	=89	=89	=89	=89	=89	=89	=89	=89	=89	=89
4D\	.	.	8r	.	8r	.	.	.	.	.	4.f#\	-net	.	.	1.r	1.r
.	.	.	8d/L	.	8f#/L	.	.	.	.	.	.	.	.	.	.	.
8r	.	.	8d/J	.	8f#/J	.	.	.	.	.	.	.	.	.	.	.
*	*	*	*tremolo	*	*tremolo	*	*	*	*	*	*	*	*	*	*	*
4r	.	.	8d/L	.	8f#/L	.	.	.	.	.	16f#\LL	ma-	.	.	.	.
.	.	.	.	.	.	.	.	.	.	.	16g\JJ	.	.	.	.	.
.	.	.	8d/	.	8f#/	.	.	.	.	.	16a\LL	net	.	.	.	.
.	.	.	.	.	.	.	.	.	.	.	16b\JJ	.	.	.	.	.
8r	.	.	8d/J	.	8f#/J	.	.	.	.	.	16cc#\LL	in	.	.	.	.
.	.	.	.	.	.	.	.	.	.	.	16dd\JJ	.	.	.	.	.
*	*	*	*Xtremolo	*	*Xtremolo	*	*	*	*	*	*	*	*	*	*	*
!LO:LB:g=original	!	!	!LO:LB:g=original	!	!LO:LB:g=original	!	!	!	!	!	!	!	!	!	!	!
=90	=90	=90	=90	=90	=90	=90	=90	=90	=90	=90	=90	=90	=90	=90	=90	=90
4G\	6	.	8r	.	8r	.	.	.	.	.	4.b\	Se-	.	.	.	.
.	.	.	8e/L	.	8g/L	.	.	.	.	.	.	.	.	.	.	.
8r	.	.	8e/J	.	8g/J	.	.	.	.	.	.	.	.	.	.	.
*	*	*	*tremolo	*	*	*	*	*	*	*	*	*	*	*	*	*
4r	.	.	8e/L	.	8g/L	.	.	.	.	.	8b\	.	.	.	.	.
.	.	.	8e/	.	8g/	.	.	.	.	.	16a\LL	-cu-	.	.	.	.
.	.	.	.	.	.	.	.	.	.	.	16g\JJ	.	.	.	.	.
8r	.	.	8e/J	.	8g/J	.	.	.	.	.	16f#\LL	-lum	.	.	.	.
.	.	.	.	.	.	.	.	.	.	.	16e\JJ	.	.	.	.	.
*	*	*	*Xtremolo	*	*	*	*	*	*	*	*	*	*	*	*	*
=91	=91	=91	=91	=91	=91	=91	=91	=91	=91	=91	=91	=91	=91	=91	=91	=91
4A\	6 4	.	8r	.	8r	.	1.r	.	1.r	.	4.d\	Sae-	1.r	.	2.r	2.r
.	.	.	8d/L	.	8f#/L	.	.	.	.	.	.	.	.	.	.	.
8r	.	.	8d/J	.	8f#/J	.	.	.	.	.	.	.	.	.	.	.
4AA/	5 3	.	8r	.	8r	.	.	.	.	.	4e\	.	.	.	.	.
.	.	.	8c#/L	.	8g/L	.	.	.	.	.	.	.	.	.	.	.
8r	.	.	8c#/J	.	8g/J	.	.	.	.	.	8e\	-cu-	.	.	.	.
!	!	!	!	!	!	!	!	!	!	!	!LO:LB:g=original	!	!	!	!	!
=92	=92	=92	=92	=92	=92	=92	=92	=92	=92	=92	=92	=92	=92	=92	=92	=92
8D\	.	.	8d/	.	8f#/	.	.	.	.	.	4d\	-li	.	.	8r	8r
!	!	!	!LO:N:vis=8	!	!LO:DY:a	!	!	!	!	!	!	!	!	!	!	!
16r	.	.	32r	.	16r	f	.	.	.	.	.	.	.	.	16r	16r
!	!	!	!LO:N:vis=16	!	!	!	!	!	!	!	!	!	!	!	!	!
.	.	.	32r	.	.	.	.	.	.	.	.	.	.	.	.	.
16D\LL|	.	.	16d/LL	.	16d/LL	.	.	.	.	.	.	.	.	.	16D/LL	16D/LL
16F#\|	.	.	16f#/	.	16f#/	.	.	.	.	.	8r	.	.	.	16F#/	16F#/
16F#\JJ|	.	.	16f#/JJ	.	16f#/JJ	.	.	.	.	.	.	.	.	.	16F#/JJ	16F#/JJ
!	!	!	!	!	!	!	!	!	!	!	!	!	!	!	!LO:LB:g=original	!
(16A\LL	.	.	16a\LL	.	16a\LL	.	.	.	.	.	4r	.	.	.	8A/L	8A/L
32B\L	.	.	32b\L	.	32b\L	.	.	.	.	.	.	.	.	.	.	.
32c#\JJJ)	.	.	32cc#\JJJ	.	32cc#\JJJ	.	.	.	.	.	.	.	.	.	.	.
!	!	!	!LO:TX:t=P:problem:mixed beam	!	!LO:TX:t=P:problem:mixed beam	!	!	!	!	!	!	!	!	!	!	!
16d\LL	.	.	16dd\LL	.	16dd\LL	.	.	.	.	.	.	.	.	.	16d/L	16d/L
16D\|	.	.	16d/	.	16d/	.	.	.	.	.	.	.	.	.	16D/	16D/
16F#\|	.	.	16f#/	.	16f#/	.	.	.	.	.	8r	.	.	.	16F#/	16F#/
16F#\JJ|	.	.	16f#/JJ	.	16f#/JJ	.	.	.	.	.	.	.	.	.	16F#/JJ	16F#/JJ
!	!	!	!	!	!	!	!	!	!	!	!	!	!	!	!	!LO:LB:g=original
=93	=93	=93	=93	=93	=93	=93	=93	=93	=93	=93	=93	=93	=93	=93	=93	=93
(16A\LL	.	.	16a\LL	.	16a\LL	.	2.r	.	2.r	.	2.r	.	2.r	.	8A/L	8A/L
32B\L	.	.	32b\L	.	32b\L	.	.	.	.	.	.	.	.	.	.	.
32c#\JJJ)	.	.	32cc#\JJJ	.	32cc#\JJJ	.	.	.	.	.	.	.	.	.	.	.
!	!	!	!LO:TX:t=P:problem:mixed beam	!	!LO:TX:t=P:problem:mixed beam	!	!	!	!	!	!	!	!	!	!	!
16d\LL	.	.	16dd\LL	.	16dd\LL	.	.	.	.	.	.	.	.	.	8d/J	8d/J
(32D\L	.	.	32d/L	.	32d/L	.	.	.	.	.	.	.	.	.	.	.
32E\J	.	.	32e/JJJ	.	32e/JJJ	.	.	.	.	.	.	.	.	.	.	.
16F#\)	.	.	16f#/LL	.	16f#/LL	.	.	.	.	.	.	.	.	.	8r	8r
!LO:SIC:v:s=(32F#\L	!	!	!	!	!	!	!	!	!	!	!	!	!	!	!	!
(32G\L	.	.	32f#/L	.	32f#/L	.	.	.	.	.	.	.	.	.	.	.
32G\JJJ	.	.	32g/JJJ	.	32g/JJJ	.	.	.	.	.	.	.	.	.	.	.
16A\LL)	.	.	16a\LL	.	16a\LL	.	.	.	.	.	.	.	.	.	4r	4r
(32B\L	.	.	32b\L	.	32b\L	.	.	.	.	.	.	.	.	.	.	.
32c#\JJJ	.	.	32cc#\JJJ	.	32cc#\JJJ	.	.	.	.	.	.	.	.	.	.	.
!LO:LB:g=original	!	!	!	!	!	!	!	!	!	!	!	!	!	!	!	!
!	!	!	!LO:TX:t=P:problem:mixed beam	!	!LO:TX:t=P:problem:mixed beam	!	!	!	!	!	!	!	!	!	!	!
16d\LL)	.	.	16dd\LL	.	16dd\LL	.	.	.	.	.	.	.	.	.	.	.
16F#|\	.	.	16f#/	.	16f#/	.	.	.	.	.	.	.	.	.	.	.
16G|\	.	.	16g/	.	16g/	.	.	.	.	.	.	.	.	.	8r	8r
16A|\JJ	.	.	16a/JJ	.	16a/JJ	.	.	.	.	.	.	.	.	.	.	.
=94	=94	=94	=94	=94	=94	=94	=94	=94	=94	=94	=94	=94	=94	=94	=94	=94
4D|\	.	.	4d/	.	4d/	.	8r	.	8r	.	8r	.	8r	.	8r	8r
.	.	.	.	.	.	.	8D\	Cor-	8d\	Cor-	8a\	Cor-	8ff#\	Cor-	8D/L	8F#/L
8r	.	.	8r	.	8r	.	8F#\	-nu	8d\	-nu	8a\	-nu	8ff#\	-nu	8D/J	8F#/J
!LO:LB:g=original	!	!	!	!	!	!	!LO:LB:g=original	!	!	!	!	!	!	!	!	!
16r	.	.	16r	.	16r	.	8A\	E-	8c#\	e-	8a\	e-	8ee\	e-	8AA/L	8A/L
16AA|/LL	.	.	16A/LL	.	16A/LL	.	.	.	.	.	.	.	.	.	.	.
16C#|/	.	.	16c#/	.	16c#/	.	8A\	-jus	8c#\	-jus	8a\	-juſ	8ee\	-juſ	8AA/J	8A/J
16C#|/	.	.	16c#/	.	16c#/	.	.	.	.	.	.	.	.	.	.	.
16E|/	.	.	16e/	.	16e/	.	8r	.	8r	.	8r	.	8r	.	8r	8r
16E|/JJ	.	.	16e/JJ	.	16e/JJ	.	.	.	.	.	.	.	.	.	.	.
!	!	!	!LO:PB:g=original	!	!	!	!	!	!LO:LB:g=original	!	!	!	!LO:LB:g=original	!	!	!
=95	=95	=95	=95	=95	=95	=95	=95	=95	=95	=95	=95	=95	=95	=95	=95	=95
!LO:TX:t=P:problem:mixed beam	!	!	!	!	!	!	!	!	!	!	!	!	!	!	!	!
8A\L|<	.	.	8a/L	.	8a/L	.	8r	.	8r	.	8r	.	8r	.	8r	8r
*	*	*	*	*	*	*	*	*ij	*	*	*	*	*	*	*	*
8AA|/J	.	.	8A/J	.	8A/J	.	8A\	Cor-	8e\	Cor-	8a\	Cor-	8gg\	Cor-	8A/L	8e\L
8r	.	.	8r	.	8r	.	8c#\	-nu	8e\	-nu	8a\	-nu	8gg\	-nu	8A/J	8e\J
16r	.	.	16r	.	16r	.	8d\	E-	8d\	e-	8a\	e-	8ff#\	e-	8F#/L	8d\L
16D|\LL	.	.	16d/LL	.	16d/LL	.	.	.	.	.	.	.	.	.	.	.
16F#|\	.	.	16f#/	.	16f#/	.	8D\	-jus	8d\	-jus	8a\	-jus	8ff#\	-jus	8F#/J	8d\J
*	*	*	*	*	*	*	*	*Xij	*	*	*	*	*	*	*	*
16F#|\	.	.	16f#/	.	16f#/	.	.	.	.	.	.	.	.	.	.	.
16A|\	.	.	16a/	.	16a/	.	8r	.	8r	.	8r	.	8r	.	8r	8r
16A|\JJ	.	.	16a/JJ	.	16a/JJ	.	.	.	.	.	.	.	.	.	.	.
=96	=96	=96	=96	=96	=96	=96	=96	=96	=96	=96	=96	=96	=96	=96	=96	=96
8d\L	.	.	16f#/LL	.	16dd\LL	.	4D\	Ex-	4d\	Ex-	4f#\	Ex-	4dd\	Ex-	4.D/	4.d\
.	.	.	16e/	.	16cc#\	.	.	.	.	.	.	.	.	.	.	.
8D\	.	.	16f#/	.	16dd\	.	.	.	.	.	.	.	.	.	.	.
.	.	.	16a/	.	16ff#\	.	.	.	.	.	.	.	.	.	.	.
8D\J	n7r 5	.	16f#/	.	16dd\	.	8D\	-al-	8d\	-al-	8a\	-al-	8ccn\	-al-	.	.
.	.	.	16a/JJ	.	16ccn\JJ	.	.	.	.	.	.	.	.	.	.	.
!	!	!	!	!	!	!	!	!	!	!	!LO:LB:g=original	!	!	!	!	!
8D\L	6_ 4_	.	16g/LL	.	16b\LL	.	4D\	-ta-	4d\	-ta-	4g\	-ta-	4b\	-ta-	4.D/	4.d\
.	.	.	16f#/	.	16a#X\	.	.	.	.	.	.	.	.	.	.	.
8D\	.	.	16g/	.	16b\	.	.	.	.	.	.	.	.	.	.	.
.	.	.	16b/	.	16gg\	.	.	.	.	.	.	.	.	.	.	.
8D\J	#7r 2	.	16g/	.	16ee\	.	8D\	-bi-	8d\	-bi-	8e\	-bi-	8cc#X\	-bi-	.	.
.	.	.	16e/JJ	.	16cc#X\JJ	.	.	.	.	.	.	.	.	.	.	.
=97	=97	=97	=97	=97	=97	=97	=97	=97	=97	=97	=97	=97	=97	=97	=97	=97
8D\L	8_ 3_	.	16f#/LL	.	16dd\LL	.	8D\	-tur	8d\	-tur	8f#\	-tur	8dd\	-tur	4.D/	4.d\
.	.	.	16e/	.	16cc#\	.	.	.	.	.	.	.	.	.	.	.
*	*	*	*	*	*	*	*	*	*	*	*	*ij	*	*ij	*	*
8D\	.	.	16f#/	.	16dd\	.	8D\	Ex-	8d\	Ex	8f#\	Ex-	8dd\	Ex-	.	.
.	.	.	16a/	.	16ff#\	.	.	.	.	.	.	.	.	.	.	.
8D\J	n7r 5	.	16f#/	.	16dd\	.	8D\	-al-	8d\	al-	8a\	-al-	8ccn\	-al-	.	.
.	.	.	16a/JJ	.	16ccn\JJ	.	.	.	.	.	.	.	.	.	.	.
!	!	!	!	!	!LO:LB:g=original	!	!	!	!	!	!	!	!	!	!	!
8D\L	6_ 4_	.	16g/LL	.	16b\LL	.	4D\	-ta-	4d\	-ta-	4g\	-ta-	4b\	-ta-	4.D/	4.d\
.	.	.	16f#/	.	16a#X\	.	.	.	.	.	.	.	.	.	.	.
8D\	.	.	16g/	.	16b\	.	.	.	.	.	.	.	.	.	.	.
.	.	.	16b/	.	16gg\	.	.	.	.	.	.	.	.	.	.	.
8D\J	#7r 2	.	16g/	.	16ee\	.	8D\	-bi-	8d\	-bi-	8e\	-bi-	8cc#X\	-bi-	.	.
.	.	.	16e/JJ	.	16cc#X\JJ	.	.	.	.	.	.	.	.	.	.	.
!	!	!	!	!	!	!	!LO:LB:g=original	!	!LO:LB:g=original	!	!	!	!	!	!	!
=98	=98	=98	=98	=98	=98	=98	=98	=98	=98	=98	=98	=98	=98	=98	=98	=98
8D\L	8_ 3_	.	8f#/L	.	16dd\LL	.	8D\	-tur	8d\	-tur	8f#\	-tur	8dd\	-tur	4D/	4d\
*	*	*	*	*	*	*	*	*	*	*	*	*Xij	*	*Xij	*	*
.	.	.	.	.	16ee\	.	.	.	.	.	.	.	.	.	.	.
8D\	.	.	8f#/	.	16dd\	.	8D\	ex-	8A\	Ex-	8f#\	Ex-	8dd\	Ex-	.	.
.	.	.	.	.	16cc#\	.	.	.	.	.	.	.	.	.	.	.
8D\J	.	.	8f#/J	.	16dd\	.	8D\	-al-	8A\	-al-	8f#\	-al-	8dd\	-al-	8d\	8f#\
.	.	.	.	.	16ff#\JJ	.	.	.	.	.	.	.	.	.	.	.
!	!	!	!	!	!	!	!	!	!	!	!	!	!LO:LB:g=original	!	!	!
8G\L	6_	.	8b\L	.	16ff#\LL	.	8.G\	-ta-	8.B\	-ta-	8.g\	-ta-	8.ee\	-ta-	4.e\	4.g\
.	.	.	.	.	16ee\	.	.	.	.	.	.	.	.	.	.	.
8G\	.	.	8b\	.	16gg\	.	.	.	.	.	.	.	.	.	.	.
.	.	.	.	.	16ee\	.	16G\	-bi-	16B\	-bi-	16g\	-bi-	16ee\	-bi-	.	.
8G\J	5	.	8b\J	.	16ff#\	.	8G\	-tur	8B\	-tur	8f#\	-tur	8dd\	-tur	.	.
.	.	.	.	.	16dd\JJ	.	.	.	.	.	.	.	.	.	.	.
=99	=99	=99	=99	=99	=99	=99	=99	=99	=99	=99	=99	=99	=99	=99	=99	=99
.	.	.	.	.	8qqdd/	.	.	.	.	.	.	.	.	.	.	.
8A\L	3_	.	8g/L	.	8cc#\L	.	8A\	in	8A\	in	8e\	in	8cc#\	in	4.A/	4.e\
8A\	.	.	8g/	.	16cc#\L	.	8A\	Glo-	8A\	Glo-	8e\	Glo-	8cc#\	Glo-	.	.
.	.	.	.	.	16b\	.	.	.	.	.	.	.	.	.	.	.
8A\J	.	.	8g/J	.	16cc#\	.	8A\	-ri-	8A\	-ri-	8e\	-ri-	8cc#\	-ri-	.	.
.	.	.	.	.	16dd\JJ	.	.	.	.	.	.	.	.	.	.	.
!	!	!	!	!	!	!	!	!	!	!	!LO:LB:g=original	!	!	!	!	!
8d\L	x	.	8f#/L	.	8dd\	.	4D\	-a.	4B\	-a	4f#\	-a	4dd\	-a	8F#/L	8d\L
8D\J	.	.	8f#/J	.	16r	.	.	.	.	.	.	.	.	.	8F#/J	8d\J
!	!	!	!	!	!LO:TX:a:i:t=Solo	!	!	!	!	!	!	!	!	!	!	!
.	.	.	.	.	16dd\LL	.	.	.	.	.	.	.	.	.	.	.
!	!	!LO:DY:a	!	!	!	!	!	!	!	!	!	!	!	!	!	!
8r	.	p	8r	.	16cc#\	.	8r	.	8r	.	8r	.	8r	.	8r	8r
.	.	.	.	.	16dd\JJ	.	.	.	.	.	.	.	.	.	.	.
!LO:PB:g=original	!	!	!	!	!	!	!	!	!	!	!	!	!	!	!	!
=100	=100	=100	=100	=100	=100	=100	=100	=100	=100	=100	=100	=100	=100	=100	=100	=100
!	!	!	!	!	!	!	!	!	!	!	!LO:TX:a:t=13:color=grey	!	!	!	!	!
8d\L	n_	.	16.d/LL	.	16.ffn\LL	.	1.r	.	0.r	.	0.r	.	0.r	.	0.r	0.r
.	.	.	32e/JJk	.	32ee\JJk	.	.	.	.	.	.	.	.	.	.	.
!	!	!	!LO:SIC:v:s=16fn/LL	!	!	!	!	!	!	!	!	!	!	!	!	!
8d\J	.	.	16f#/LL	.	16dd\LL	.	.	.	.	.	.	.	.	.	.	.
!	!	!	!LO:SIC:v:s=16fn/	!	!	!	!	!	!	!	!	!	!	!	!	!
.	.	.	16f#/	.	16dd\	.	.	.	.	.	.	.	.	.	.	.
8r	.	.	16e/	.	16cc#\	.	.	.	.	.	.	.	.	.	.	.
!	!	!	!LO:SIC:v:s=16fn/JJ	!	!	!	!	!	!	!	!	!	!	!	!	!
.	.	.	16f#/JJ	.	16dd\JJ	.	.	.	.	.	.	.	.	.	.	.
8B-X\L	.	.	16.d/LL	.	16.ffn\LL	.	.	.	.	.	.	.	.	.	.	.
.	.	.	32e/JJk	.	32ee\JJk	.	.	.	.	.	.	.	.	.	.	.
!	!	!	!LO:SIC:v:s=16fn/LL	!	!	!	!	!	!	!	!	!	!	!	!	!
8B-\J	.	.	16f#/LL	.	16dd\LL	.	.	.	.	.	.	.	.	.	.	.
!	!	!	!LO:SIC:v:s=16fn/	!	!	!	!	!	!	!	!	!	!	!	!	!
.	.	.	16f#/	.	16dd\	.	.	.	.	.	.	.	.	.	.	.
8r	x	.	16e/	.	16cc#\	.	.	.	.	.	.	.	.	.	.	.
!	!	!	!LO:SIC:v:s=16fn/JJ	!	!	!	!	!	!	!	!	!	!	!	!	!
.	.	.	16f#/JJ	.	16dd\JJ	.	.	.	.	.	.	.	.	.	.	.
!	!	!	!LO:LB:g=original	!	!LO:PB:g=original	!	!	!	!	!	!	!	!	!	!	!
=101	=101	=101	=101	=101	=101	=101	=101	=101	=101	=101	=101	=101	=101	=101	=101	=101
8G#X\L	n7r_ 5_	.	16.d/LL	.	16.ffn\LL	.	.	.	.	.	.	.	.	.	.	.
.	.	.	32e/JJk	.	32ee\JJk	.	.	.	.	.	.	.	.	.	.	.
8G#\	.	.	16fn/LL	.	(16dd\LL	.	.	.	.	.	.	.	.	.	.	.
.	.	.	16f/	.	16dd\	.	.	.	.	.	.	.	.	.	.	.
8G#\J	.	.	16e/	.	16cc#\	.	.	.	.	.	.	.	.	.	.	.
.	.	.	16f/JJ	.	16dd\JJ)	.	.	.	.	.	.	.	.	.	.	.
16A\LL	#	.	16e/KL	.	(16cc#\LL	.	.	.	.	.	.	.	.	.	.	.
16G#\	6 5	.	8e/	.	16dd\	.	.	.	.	.	.	.	.	.	.	.
16A\	#	.	.	.	16cc#\	.	.	.	.	.	.	.	.	.	.	.
16G#\	6 5	.	8e/	.	16dd\	.	.	.	.	.	.	.	.	.	.	.
16A\	#	.	.	.	16cc#\	.	.	.	.	.	.	.	.	.	.	.
16G#\JJ	6 5	.	16e/Jk	.	16dd\JJ)	.	.	.	.	.	.	.	.	.	.	.
=102	=102	=102	=102	=102	=102	=102	=102	=102	=102	=102	=102	=102	=102	=102	=102	=102
!	!	!	!	!	!	!	!LO:TX:a:i:t=Solo:rj	!	!	!	!	!	!	!	!	!
16A\LL	#	.	16e/KL	.	(16cc#\LL	.	4r	.	.	.	.	.	.	.	.	.
16G#X\	6 5	.	8e/	.	16dd\	.	.	.	.	.	.	.	.	.	.	.
16A\	#	.	.	.	16cc#\	.	.	.	.	.	.	.	.	.	.	.
16G#\	6 5	.	8e/	.	16dd\	.	.	.	.	.	.	.	.	.	.	.
16A\	#	.	.	.	16cc#\	.	8r	.	.	.	.	.	.	.	.	.
16G#\JJ	6 5	.	16e/Jk	.	16dd\JJ)	.	.	.	.	.	.	.	.	.	.	.
!LO:TX:t=P:problem:mixed beam	!	!	!	!	!	!	!	!	!	!	!	!	!	!	!	!
16A\LL	.	.	16e/KL	.	16cc#\KL	.	8r	.	.	.	.	.	.	.	.	.
16AA/JJ	.	.	8e/	.	8cc#\	.	.	.	.	.	.	.	.	.	.	.
16A\LL|	.	.	.	.	.	.	8r	.	.	.	.	.	.	.	.	.
16Gn\|	.	.	8e/	.	8cc#\	.	.	.	.	.	.	.	.	.	.	.
16Fn\|	.	.	.	.	.	.	8A\	Pec-	.	.	.	.	.	.	.	.
16E\JJ|	.	.	16e/Jk	.	16cc#\Jk	.	.	.	.	.	.	.	.	.	.	.
=103	=103	=103	=103	=103	=103	=103	=103	=103	=103	=103	=103	=103	=103	=103	=103	=103
16D\LL	n_	.	16fn/KL	.	16dd\KL	.	8d\	-ca-	.	.	.	.	.	.	.	.
16d\	.	.	8f/	.	8dd\	.	.	.	.	.	.	.	.	.	.	.
16c#\	.	.	.	.	.	.	8D\	-to	.	.	.	.	.	.	.	.
16d\	.	.	8f/	.	8dd\	.	.	.	.	.	.	.	.	.	.	.
16c#\	.	.	.	.	.	.	16r	.	.	.	.	.	.	.	.	.
16d\JJ	.	.	16f/Jk	.	16dd\Jk	.	16d\	vi-	.	.	.	.	.	.	.	.
!LO:N:vis=8	!	!	!	!	!	!	!LO:LB:g=original	!	!	!	!	!	!	!	!	!
16r	x	.	16f/KL	.	16dd\KL	.	8d\	-de-	.	.	.	.	.	.	.	.
16B-X\LL	r5n_ 3_	.	8f/	.	8dd\	.	.	.	.	.	.	.	.	.	.	.
16A\	.	.	.	.	.	.	8D\	-bit	.	.	.	.	.	.	.	.
16B-\	.	.	8f/	.	8dd\	.	.	.	.	.	.	.	.	.	.	.
16A\	.	.	.	.	.	.	16r	.	.	.	.	.	.	.	.	.
*	*	*	*	*	*	*	*	*ij	*	*	*	*	*	*	*	*
16B-\JJ	.	.	16f/Jk	.	16dd\Jk	.	16d\	vi-	.	.	.	.	.	.	.	.
!LO:LB:g=original	!	!	!	!	!LO:LB:g=original	!	!	!	!	!	!	!	!	!	!	!
=104	=104	=104	=104	=104	=104	=104	=104	=104	=104	=104	=104	=104	=104	=104	=104	=104
!	!	!	!LO:SIC:v:s=16fn/KL	!	!	!	!	!	!	!	!	!	!	!	!	!
16r	.	.	16f#/KL	.	16dd\KL	.	8d\	-de-	0.r	.	0.r	.	0.r	.	0.r	0.r
!	!	!	!LO:SIC:v:s=8fn/	!	!	!	!	!	!	!	!	!	!	!	!	!
16A\LL	.	.	8f#/	.	8dd\	.	.	.	.	.	.	.	.	.	.	.
16B-X\	.	.	.	.	.	.	8D\	-bit	.	.	.	.	.	.	.	.
*	*	*	*	*	*	*	*	*Xij	*	*	*	*	*	*	*	*
!	!	!	!LO:SIC:v:s=8fn/	!	!	!	!	!	!	!	!	!	!	!	!	!
16A\	.	.	8f#/	.	8dd\	.	.	.	.	.	.	.	.	.	.	.
16B-\	.	.	.	.	.	.	16r	.	.	.	.	.	.	.	.	.
!	!	!	!LO:SIC:v:s=16fn/Jk	!	!	!	!	!	!	!	!	!	!	!	!	!
16A\JJ	.	.	16f#/Jk	.	16dd\Jk	.	16D\	(et)	.	.	.	.	.	.	.	.
16r	.	.	16fn/KL	.	16dd\KL	.	4d\	i-	.	.	.	.	.	.	.	.
16G#X\LL	.	.	8f/	.	8dd\	.	.	.	.	.	.	.	.	.	.	.
16A\	.	.	.	.	.	.	.	.	.	.	.	.	.	.	.	.
16G#\	.	.	8f/	.	8dd\	.	.	.	.	.	.	.	.	.	.	.
16A\	.	.	.	.	.	.	8d\	-ras-	.	.	.	.	.	.	.	.
16G#\JJ	.	.	16f/Jk	.	16dd\Jk	.	.	.	.	.	.	.	.	.	.	.
=105	=105	=105	=105	=105	=105	=105	=105	=105	=105	=105	=105	=105	=105	=105	=105	=105
!LO:TX:t=P:problem:mixed beam	!	!	!	!	!	!	!	!	!	!	!	!	!	!	!	!
16A/LL	#_	.	16e/KL	.	16cc#\KL	.	16d\LL	-ce-	.	.	.	.	.	.	.	.
16AA\	.	.	8a/	.	8cc#\	.	16c#X\JJ	.	.	.	.	.	.	.	.	.
16C#\	.	.	.	.	.	.	8c#\	-tur	.	.	.	.	.	.	.	.
16E\JJ	.	.	8a/	.	8cc#\	.	.	.	.	.	.	.	.	.	.	.
16A\LL	.	.	.	.	.	.	8r	.	.	.	.	.	.	.	.	.
16Gn\JJ	.	.	16a/Jk	.	16cc#\Jk	.	.	.	.	.	.	.	.	.	.	.
16Fn\LL	6	.	(16dd\LL	.	(16dd\LL	.	4r	.	.	.	.	.	.	.	.	.
16G\	#4r 2	.	16cc#X\	.	16cc#\	.	.	.	.	.	.	.	.	.	.	.
16F\	6	.	16dd\	.	16dd\	.	.	.	.	.	.	.	.	.	.	.
16G\	4 2	.	16cc#\	.	16cc#\	.	.	.	.	.	.	.	.	.	.	.
16F\	6	.	16dd\	.	16dd\	.	8r	.	.	.	.	.	.	.	.	.
16G\JJ	4 2	.	16cc#\JJ)	.	16cc#\JJ)	.	.	.	.	.	.	.	.	.	.	.
!	!	!	!LO:LB:g=original	!	!	!	!	!	!	!	!	!	!	!	!	!
=106	=106	=106	=106	=106	=106	=106	=106	=106	=106	=106	=106	=106	=106	=106	=106	=106
4.Fn\	6 3	.	4.dd\	.	4.dd\	.	16r	.	.	.	.	.	.	.	.	.
.	.	.	.	.	.	.	16A\	Den-	.	.	.	.	.	.	.	.
.	.	.	.	.	.	.	16A\	-ti-	.	.	.	.	.	.	.	.
.	.	.	.	.	.	.	16A\	-bus	.	.	.	.	.	.	.	.
.	.	.	.	.	.	.	16A\	Su-	.	.	.	.	.	.	.	.
.	.	.	.	.	.	.	16A\	-is	.	.	.	.	.	.	.	.
!	!	!	!	!	!	!	!LO:LB:g=original	!	!	!	!	!	!	!	!	!
16G\LL	#4r 2	.	(16cc#\LL	.	(16cc#\LL	.	8A\	fre-	.	.	.	.	.	.	.	.
16F\	6	.	16dd\	.	16dd\	.	.	.	.	.	.	.	.	.	.	.
16G\	4 2	.	16cc#\	.	16cc#\	.	8A\	-met	.	.	.	.	.	.	.	.
16F\	6	.	16dd\	.	16dd\	.	.	.	.	.	.	.	.	.	.	.
16G\	4 2	.	16cc#\	.	16cc#\	.	8r	.	.	.	.	.	.	.	.	.
16F\JJ	6	.	16dd\JJ)	.	16dd\JJ)	.	.	.	.	.	.	.	.	.	.	.
=107	=107	=107	=107	=107	=107	=107	=107	=107	=107	=107	=107	=107	=107	=107	=107	=107
4.G\	#4r 2	.	4.cc#X\	.	4.cc#\	.	16r	.	.	.	.	.	.	.	.	.
*	*	*	*	*	*	*	*	*ij	*	*	*	*	*	*	*	*
.	.	.	.	.	.	.	16A\	Den-	.	.	.	.	.	.	.	.
.	.	.	.	.	.	.	16A\	-ti-	.	.	.	.	.	.	.	.
.	.	.	.	.	.	.	16A\	-bus	.	.	.	.	.	.	.	.
.	.	.	.	.	.	.	16A\	Su-	.	.	.	.	.	.	.	.
.	.	.	.	.	.	.	16A\	-is	.	.	.	.	.	.	.	.
!LO:SIC:v:s=16Fn\LL	!	!	!	!	!	!	!	!	!	!	!	!	!	!	!	!
16F#\LL	6	.	(16dd\LL	.	(16dd\LL	.	8A\	fre-	.	.	.	.	.	.	.	.
16G\	4 2	.	16cc#\	.	16cc#\	.	.	.	.	.	.	.	.	.	.	.
!LO:SIC:v:s=16Fn\	!	!	!	!	!	!	!	!	!	!	!	!	!	!	!	!
16F#\	6	.	16dd\	.	16dd\	.	8A\	-met	.	.	.	.	.	.	.	.
*	*	*	*	*	*	*	*	*Xij	*	*	*	*	*	*	*	*
16G\	4 2	.	16cc#\	.	16cc#\	.	.	.	.	.	.	.	.	.	.	.
!LO:SIC:v:s=16Fn\	!	!	!	!	!	!	!	!	!	!	!	!	!	!	!	!
16F#\	6	.	16dd\	.	16dd\	.	8r	.	.	.	.	.	.	.	.	.
16G\JJ	4 2	.	16cc#\JJ)	.	16cc#\JJ)	.	.	.	.	.	.	.	.	.	.	.
=108	=108	=108	=108	=108	=108	=108	=108	=108	=108	=108	=108	=108	=108	=108	=108	=108
4Fn\	6	.	4dd\	.	4dd\	.	8r	.	0.r	.	0.r	.	0.r	.	0.r	0.r
.	.	.	.	.	.	.	8A\	et	.	.	.	.	.	.	.	.
8r	.	.	8r	.	8r	.	8A\	ta-	.	.	.	.	.	.	.	.
!LO:LB:g=original	!	!	!	!	!	!	!	!	!	!	!	!	!	!	!	!
16F\LL	6_	.	(16fn/LL	.	16fn/LL	.	4.d\	-bes-	.	.	.	.	.	.	.	.
16E\	.	.	16e/	.	16e/	.	.	.	.	.	.	.	.	.	.	.
16F\	.	.	16f/	.	16f/	.	.	.	.	.	.	.	.	.	.	.
16F#X\	.	.	16f#X/	.	16f#X/	.	.	.	.	.	.	.	.	.	.	.
16G\	.	.	16g/	.	16g/	.	.	.	.	.	.	.	.	.	.	.
16G#X\JJ	.	.	16g#X/JJ)	.	16g#X/JJ	.	.	.	.	.	.	.	.	.	.	.
=109	=109	=109	=109	=109	=109	=109	=109	=109	=109	=109	=109	=109	=109	=109	=109	=109
16A\LL	#_	.	16a/LL	.	16a/LL	.	8c#X\	-cet	.	.	.	.	.	.	.	.
16G#X\	.	.	16g#X/	.	16g#X/	.	.	.	.	.	.	.	.	.	.	.
*	*	*	*	*	*	*	*	*ij	*	*	*	*	*	*	*	*
16A\	.	.	16a/	.	16a/	.	8c#\	et	.	.	.	.	.	.	.	.
16G#\	.	.	16g#/	.	16g#/	.	.	.	.	.	.	.	.	.	.	.
16A\	.	.	16a/	.	16a/	.	8c#\	ta-	.	.	.	.	.	.	.	.
16Gn\JJ	.	.	16gn/JJ	.	16gn/JJ	.	.	.	.	.	.	.	.	.	.	.
!	!	!	!	!	!	!	!LO:LB:g=original	!	!	!	!	!	!	!	!	!
16Fn\LL	6_	.	16fn/LL	.	16fn/LL	.	4.d\	-bes-	.	.	.	.	.	.	.	.
16E\	.	.	16e/	.	16e/	.	.	.	.	.	.	.	.	.	.	.
16F\	.	.	16f/	.	16f/	.	.	.	.	.	.	.	.	.	.	.
16F#X\	.	.	16f#X/	.	16f#X/	.	.	.	.	.	.	.	.	.	.	.
16G\	.	.	16g/	.	16g/	.	.	.	.	.	.	.	.	.	.	.
16G#X\JJ	.	.	16g#X/JJ	.	16g#X/JJ	.	.	.	.	.	.	.	.	.	.	.
!	!	!	!	!	!LO:LB:g=original	!	!	!	!	!	!	!	!	!	!	!
=110	=110	=110	=110	=110	=110	=110	=110	=110	=110	=110	=110	=110	=110	=110	=110	=110
!LO:TX:t=P:problem:mixed beam	!	!	!	!	!	!	!	!	!	!	!	!	!	!	!	!
8A\L	#_	.	8a\L	.	16a\LL	.	4c#\	-cet	.	.	.	.	.	.	.	.
*	*	*	*	*	*	*	*	*Xij	*	*	*	*	*	*	*	*
.	.	.	.	.	16aa\	.	.	.	.	.	.	.	.	.	.	.
8AA/	.	.	8cc#X\	.	16gg#X\	.	.	.	.	.	.	.	.	.	.	.
.	.	.	.	.	16aa\	.	.	.	.	.	.	.	.	.	.	.
8AA/J	.	.	8cc#\J	.	16bb\	.	8r	.	.	.	.	.	.	.	.	.
.	.	.	.	.	16aa\JJ	.	.	.	.	.	.	.	.	.	.	.
8BBn/L	6\_ 3_	.	16r	.	16aa\LL	.	4r	.	.	.	.	.	.	.	.	.
.	.	.	16dd\LL	.	16gg#X\JJ	.	.	.	.	.	.	.	.	.	.	.
8BB/	.	.	16ee\	.	4gg#\	.	.	.	.	.	.	.	.	.	.	.
.	.	.	16dd\	.	.	.	.	.	.	.	.	.	.	.	.	.
!LO:TX:t=P:problem:brak kreski taktowej	!	!	!	!	!	!	!	!	!	!	!	!	!	!	!	!
8BB/J	.	.	16cc#\	.	.	.	8r	.	.	.	.	.	.	.	.	.
.	.	.	16dd\JJ	.	.	.	.	.	.	.	.	.	.	.	.	.
=111	=111	=111	=111	=111	=111	=111	=111	=111	=111	=111	=111	=111	=111	=111	=111	=111
8C#X/L	n5r_ 3_	.	16dd\LL	.	8r	.	1.r	.	.	.	.	.	.	.	.	.
.	.	.	16ee\JJ	.	.	.	.	.	.	.	.	.	.	.	.	.
*	*	*	*	*	*Xtuplet	*	*	*	*	*	*	*	*	*	*	*
8C#/	.	.	4ee\	.	24ggn\LL	.	.	.	.	.	.	.	.	.	.	.
.	.	.	.	.	24ffn\	.	.	.	.	.	.	.	.	.	.	.
.	.	.	.	.	24gg\JJ	.	.	.	.	.	.	.	.	.	.	.
8C#/J	.	.	.	.	16aa\LL	.	.	.	.	.	.	.	.	.	.	.
.	.	.	.	.	16gg\JJ	.	.	.	.	.	.	.	.	.	.	.
8D\L	n_	.	16r	.	16gg\LL	.	.	.	.	.	.	.	.	.	.	.
.	.	.	16dd\LL	.	16ffn\JJ	.	.	.	.	.	.	.	.	.	.	.
8D\	.	.	16ee\	.	4ff\	.	.	.	.	.	.	.	.	.	.	.
.	.	.	16dd\	.	.	.	.	.	.	.	.	.	.	.	.	.
8D\J	.	.	16cc#\	.	.	.	.	.	.	.	.	.	.	.	.	.
.	.	.	16dd\JJ	.	.	.	.	.	.	.	.	.	.	.	.	.
!	!	!	!LO:LB:g=original	!	!	!	!	!	!	!	!	!	!	!	!	!
=112	=112	=112	=112	=112	=112	=112	=112	=112	=112	=112	=112	=112	=112	=112	=112	=112
8r	.	.	8r	.	16aa\LL	.	.	.	2.r	.	2.r	.	2.r	.	2.r	2.r
.	.	.	.	.	16gg#X\J	.	.	.	.	.	.	.	.	.	.	.
8BB-X/L	6\_ 3_	.	8dd\L	.	8gg#\	.	.	.	.	.	.	.	.	.	.	.
8BB-/J	.	.	8dd\J	.	8gg#\J	.	.	.	.	.	.	.	.	.	.	.
8r	x	.	8r	.	16bb\LL	.	.	.	.	.	.	.	.	.	.	.
.	.	.	.	.	16aa\	.	.	.	.	.	.	.	.	.	.	.
8AA/L	3	.	8cc#\L	.	16gg#\	.	.	.	.	.	.	.	.	.	.	.
.	.	.	.	.	16aa\	.	.	.	.	.	.	.	.	.	.	.
8AA/J	.	.	8cc#\J	.	16bb\	.	.	.	.	.	.	.	.	.	.	.
.	.	.	.	.	16aa\JJ	.	.	.	.	.	.	.	.	.	.	.
=113	=113	=113	=113	=113	=113	=113	=113	=113	=113	=113	=113	=113	=113	=113	=113	=113
8r	.	.	8r	.	16aa\LL	.	4r	.	4r	.	4r	.	4r	.	4r	4r
.	.	.	.	.	16gg#X\J	.	.	.	.	.	.	.	.	.	.	.
8BB-X/L	6\ 3	.	8dd\L	.	8gg#\	.	.	.	.	.	.	.	.	.	.	.
8BB-/J	.	.	8dd\J	.	8gg#\J	.	8r	.	8r	.	8r	.	8r	.	8r	8r
!	!	!	!	!	!	!	!LO:TX:t=P:problem:fermata na dwóch pauzach	!	!LO:TX:t=P:problem:fermata na dwóch pauzach	!	!LO:TX:t=P:problem:fermata na dwóch pauzach	!	!LO:TX:t=P:problem:fermata na dwóch pauzach	!	!	!
4AA;/	3	.	4cc#;\	.	16bb\LL	.	4r;	.	4r;	.	4r;	.	4r;	.	4r	4r
.	.	.	.	.	16aa\	.	.	.	.	.	.	.	.	.	.	.
.	.	.	.	.	16gg#\	.	.	.	.	.	.	.	.	.	.	.
!	!	!	!	!	!LO:TX:t=P:problem:fermata na nucie i pauzie	!	!	!	!	!	!	!	!	!	!	!
.	.	.	.	.	16aa;;\JJ	.	.	.	.	.	.	.	.	.	.	.
!	!	!	!	!	!	!	!	!	!	!	!	!	!	!	!LO:TX:t=P:problem:fermata nad całym taktem	!LO:TX:t=P:problem:fermata nad całym taktem
8r	.	.	8r	.	8r	.	8r	.	8r	.	8r	.	8r	.	8r;	8r;
!LO:LB:g=original	!	!	!	!	!	!	!	!	!LO:LB:g=original	!	!	!	!	!	!LO:LB:g=original	!LO:LB:g=original
=114	=114	=114	=114	=114	=114	=114	=114	=114	=114	=114	=114	=114	=114	=114	=114	=114
!LO:TX:a:i:t=tutti	!	!	!	!LO:DY:a:t=f	!	!LO:DY:a:t=f	!	!	!	!	!	!	!	!	!	!
8D\L	.	.	8f#X/L	f	8.dd\L	f	4D\	De-	4d\	De-	4a\	De-	4ff#X\	De-	4.D/	4.d\
8D\	.	.	8f#/	.	.	.	.	.	.	.	.	.	.	.	.	.
.	.	.	.	.	32ff#X\LL	.	.	.	.	.	.	.	.	.	.	.
.	.	.	.	.	32dd\JJJ	.	.	.	.	.	.	.	.	.	.	.
8D\J	.	.	8f#/J	.	16a/LL	.	8D\	-fi-	8d\	-fi-	8a\	-fi-	8ff#\	-fi-	.	.
.	.	.	.	.	16a/JJ	.	.	.	.	.	.	.	.	.	.	.
!	!	!	!	!	!LO:LB:g=original	!	!	!	!	!	!	!	!LO:LB:g=original	!	!	!
8D\L	6_ 4_	.	8.g/L	.	16a#X\LL	.	4D\	-De-	4d\	-de-	4bn\	-de-	4gg\	-de-	4.D/	4.d\
.	.	.	.	.	16bn\	.	.	.	.	.	.	.	.	.	.	.
8D\	.	.	.	.	16b\	.	.	.	.	.	.	.	.	.	.	.
.	.	.	16bn/L	.	16dd\	.	.	.	.	.	.	.	.	.	.	.
8D\J	#4r 2	.	16a/	.	16cc#\	.	8D\	-ri-	8d\	-ri-	8cc#\	-ri-	8ee\	-ri-	.	.
.	.	.	16g/JJ	.	16ee\JJ	.	.	.	.	.	.	.	.	.	.	.
=115	=115	=115	=115	=115	=115	=115	=115	=115	=115	=115	=115	=115	=115	=115	=115	=115
8D\L	8_ 3_	.	8f#/L	.	8.dd\L	.	8D\	-um	8d\	-um	8dd\	-um	8ff#\	-um	4.D/	4.d\
8D\	.	.	8f#/	.	.	.	8D\	pec-	8d\	pec-	8a\	pec-	8ff#\	pec-	.	.
.	.	.	.	.	32ff#\LL	.	.	.	.	.	.	.	.	.	.	.
.	.	.	.	.	32dd\JJJ	.	.	.	.	.	.	.	.	.	.	.
8D\J	.	.	8f#/J	.	16a/LL	.	8D\	-ca-	8d\	-ca-	8a\	-ca-	8ff#\	-ca-	.	.
.	.	.	.	.	16a/JJ	.	.	.	.	.	.	.	.	.	.	.
8D\L	6_ 4_	.	8.g/L	.	16a#X\LL	.	4.D\	-to-	4.d\	-to-	4b\	-to-	4gg\	-to-	4.D/	4.d\
.	.	.	.	.	16b\	.	.	.	.	.	.	.	.	.	.	.
8D\	.	.	.	.	16b\	.	.	.	.	.	.	.	.	.	.	.
.	.	.	16b/L	.	16dd\	.	.	.	.	.	.	.	.	.	.	.
8D\J	7 2	.	16a/	.	16cc#\	.	.	.	.	.	8cc#\	.	8ee\	.	.	.
.	.	.	16g/JJ	.	16ee\JJ	.	.	.	.	.	.	.	.	.	.	.
!	!	!	!	!	!	!	!	!	!	!	!LO:LB:g=original	!	!	!	!	!
=116	=116	=116	=116	=116	=116	=116	=116	=116	=116	=116	=116	=116	=116	=116	=116	=116
8D\L	8 3	.	16.f#/LL	.	16.dd\LL	.	4D\	rum	4d\	rum	4dd\	-rum	4ff#\	-rum	8D/L	8d\L
.	.	.	32a/JJk	.	32ff#\JJk	.	.	.	.	.	.	.	.	.	.	.
8D\J	.	.	16ff#\LL	.	16aa\LL	.	.	.	.	.	.	.	.	.	8D/J	8d\J
.	.	.	16ff#\	.	16aa\	.	.	.	.	.	.	.	.	.	.	.
16r	.	.	16ff#\	.	16aa\	.	16r	.	16r	.	16r	.	16r	.	16r	16r
16d\	.	.	16ff#\JJ	.	16aa\JJ	.	16d\	pe-	16d\	pe-	16a\	pe-	16ff#\	pe-	16d\	16f#\
!	!	!	!	!	!	!	!LO:LB:g=original	!	!	!	!	!	!	!	!	!
8A\L	6	.	16.ff#\LL	.	16.aa\LL	.	8A\	-ri-	8c#\	-ri-	16.a\LL	ri-	16.ff#\LL	-ri-	8A/L	16.f#\LL
.	5	.	32ee\JJk	.	32gg\K	.	.	.	.	.	32g\JJk	.	32ee\JJk	.	.	32e\JK
8D\J	.	.	16dd/LL	.	16ff#\	.	8D\	-bit	8A\	-bit	8f#\	-bit	8dd\	-bit	8F#/J	8d\J
.	.	.	16a/	.	16ff#\	.	.	.	.	.	.	.	.	.	.	.
16r	.	.	16a/	.	16ff#\	.	16r	.	16r	.	16r	.	16r	.	16r	16r
*	*	*	*	*	*	*	*	*ij	*	*	*	*ij	*	*	*	*
16d\	.	.	16a/JJ	.	16ff#\JJ	.	16d\	pe-	16d\	pe-	16a\	pe-	16ff#\	per-	16d\	16f#\
!	!	!	!	!	!	!	!	!	!LO:LB:g=original	!	!	!	!	!	!	!
=117	=117	=117	=117	=117	=117	=117	=117	=117	=117	=117	=117	=117	=117	=117	=117	=117
8A\L	6	.	16.a/LL	.	16.ff#\LL	.	8A\	-ri-	8c#\	-ri-	16.a\LL	-ri-	16.ff#\LL	-i-	8A/L	16.f#\LL
.	5	.	32g/JJk	.	32ee\K	.	.	.	.	.	32g\JJk	.	32ee\JJk	.	.	32e\JK
8D\J	.	.	16f#/LL	.	16dd\	.	8D\	-bit	8A\	-bit	8f#\	-bit	8dd\	-bit	8F#/J	8d\J
*	*	*	*	*	*	*	*	*Xij	*	*	*	*Xij	*	*	*	*
.	.	.	16f#/	.	16dd\	.	.	.	.	.	.	.	.	.	.	.
16r	.	.	16f#/	.	16dd\	.	16r	.	16r	.	16r	.	16r	.	16r	16r
16d\	.	.	16f#/JJ	.	16dd\JJ	.	16d\	per-	16A\	pe-	16f#\	pe-	16dd\	per-	16d\	16f#\
!	!	!	!	!	!	!	!	!	!	!	!	!	!LO:LB:g=original	!	!LO:TX:t=P:problem:mixed beam.	!
8B\L	.	.	16f#/LL	.	16dd\LL	.	8B\L	-i-	4B\	-ri-	8f#\L	-ri-	8dd\L	-i-	8d\L	8f#\L
.	.	.	32e/L	.	32cc#\L	.	.	.	.	.	.	.	.	.	.	.
.	.	.	32f#/JJJ	.	32dd\JJJ	.	.	.	.	.	.	.	.	.	.	.
8G\	6 5	.	16g/LL	.	16ee\LL	.	8G\	.	.	.	8g\	.	8ee\	.	8e\	8g\
.	.	.	16b/	.	16gg\	.	.	.	.	.	.	.	.	.	.	.
8A\J	.	.	16a/	.	16cc#\	.	8A\J	.	8A\	.	8e\J	.	8cc#\J	.	8A/J	8e\J
.	.	.	16g/JJ	.	16ee\JJ	.	.	.	.	.	.	.	.	.	.	.
!	!	!	!LO:LB:g=original	!	!LO:LB:g=original	!	!	!	!	!	!	!	!	!	!	!
=118	=118	=118	=118	=118	=118	=118	=118	=118	=118	=118	=118	=118	=118	=118	=118	=118
!LO:TX:a:i:t=Solo	!	!	!	!	!	!	!	!	!	!	!	!	!	!	!	!
8D\L	.	.	8f#/L	.	8dd\	.	4D\	-bit	4A\	-bit	4f#\	-bit	4dd\	-bit	8F#/L	8d\L
8D\J	.	.	8f#/J	.	16r	.	.	.	.	.	.	.	.	.	8F#/J	8d\J
!	!	!	!	!	!LO:TX:a:i:t=Solo:rj	!	!	!	!	!	!	!	!	!	!	!
.	.	.	.	.	16aa\LL	.	.	.	.	.	.	.	.	.	.	.
8r	.	.	8r	.	16aa\	.	8r	.	8r	.	8r	.	8r	.	8r	8r
.	.	.	.	.	16aa\JJ	.	.	.	.	.	.	.	.	.	.	.
8D#X\L	6 5	.	8b\L	.	16.aa\LL	.	4r	.	4r	.	4r	.	4r	.	4r	4r
.	.	.	.	.	32bb\K	.	.	.	.	.	.	.	.	.	.	.
8E\J	3	.	8b\J	.	16gg\	.	.	.	.	.	.	.	.	.	.	.
.	.	.	.	.	16gg\	.	.	.	.	.	.	.	.	.	.	.
8r	.	.	8r	.	16gg\	.	8r	.	8r	.	8r	.	8r	.	8r	8r
.	.	.	.	.	16gg\JJ	.	.	.	.	.	.	.	.	.	.	.
!LO:LB:g=original	!	!	!	!	!	!	!	!	!	!	!	!	!	!	!	!
=119	=119	=119	=119	=119	=119	=119	=119	=119	=119	=119	=119	=119	=119	=119	=119	=119
!	!	!	!	!	!	!	!	!	!	!	!LO:TX:a:t=1	!	!	!	!	!
8C#/L	6 5	.	8a/L	.	16.gg\LL	.	0.r	.	0.r	.	2.r	.	2.r	.	4r	4r
.	.	.	.	.	32aa\K	.	.	.	.	.	.	.	.	.	.	.
8Dn/J	3	.	8a/J	.	16ff#\	.	.	.	.	.	.	.	.	.	.	.
.	.	.	.	.	16ff#\	.	.	.	.	.	.	.	.	.	.	.
8r	.	.	8r	.	16ff#\	.	.	.	.	.	.	.	.	.	8r	8r
.	.	.	.	.	16ff#\JJ	.	.	.	.	.	.	.	.	.	.	.
!	!	!	!	!	!	!	!	!	!	!	!	!	!	!	!LO:TX:t=P:problem:mixed beam.	!
8B\L	.	.	8dd/L	.	16ff#\LL	.	.	.	.	.	.	.	.	.	8d\L	8f#\L
.	.	.	.	.	32ee\L	.	.	.	.	.	.	.	.	.	.	.
.	.	.	.	.	32ff#\JJJ	.	.	.	.	.	.	.	.	.	.	.
8G\	6 5	.	8b/	.	16gg\LL	.	.	.	.	.	.	.	.	.	8e\	8g\
.	.	.	.	.	16ee\	.	.	.	.	.	.	.	.	.	.	.
8A\J	.	.	8g/J	.	16dd\	.	.	.	.	.	.	.	.	.	8A/J	8e\J
.	.	.	.	.	16cc#\JJ	.	.	.	.	.	.	.	.	.	.	.
!	!	!	!	!	!	!	!	!	!	!	!LO:LB:g=original	!	!	!	!	!
=120	=120	=120	=120	=120	=120	=120	=120	=120	=120	=120	=120	=120	=120	=120	=120	=120
!	!	!LO:DY:a	!	!	!	!	!	!	!	!	!LO:TX:a:i:t=Solo:rj	!	!LO:TX:a:i:t=Solo:rj	!	!	!
4.D\	.	p	8f#/L	.	8dd\L	.	.	.	.	.	8.f#\	Glo-	8.dd\	Glo-	4F#/	4d\
.	.	.	8d/	.	8dd\	.	.	.	.	.	.	.	.	.	.	.
.	.	.	.	.	.	.	.	.	.	.	16f#\	-ri-	16dd\	-ri-	.	.
.	.	.	8d/J	.	8dd\J	.	.	.	.	.	8f#\	-a	8dd\	-a	8r	8r
!	!	!	!	!	!LO:TX:t=P:problem:mixed beam	!	!	!	!	!	!	!	!	!	!	!
4.AA/	.	.	8c#/L	.	8e/L	.	.	.	.	.	4.a\	pa-	8.ee\L	Pa-	4r	4r
.	.	.	8e/	.	8cc#\	.	.	.	.	.	.	.	.	.	.	.
.	.	.	.	.	.	.	.	.	.	.	.	.	16dd\K	.	.	.
.	.	.	8e/J	.	8cc#\J	.	.	.	.	.	.	.	8ee\J	.	8r	8r
=121	=121	=121	=121	=121	=121	=121	=121	=121	=121	=121	=121	=121	=121	=121	=121	=121
!	!	!	!LO:TX:t=P:problem:mixed beam	!	!	!	!	!	!	!	!	!	!	!	!	!
4DD/	.	.	8f#/L	.	8dd\L	.	.	.	.	.	4dd\	-tri	4ff#\	-tri	0.r	0.r
.	.	.	8dd\	.	8ff#\	.	.	.	.	.	.	.	.	.	.	.
8r	.	.	8dd\J	.	8ff#\J	.	.	.	.	.	8r	.	8r	.	.	.
4r	.	.	16cc#/LL	.	16ee\LL	.	.	.	.	.	8r	.	8r	.	.	.
.	.	.	16b/	.	16dd\	.	.	.	.	.	.	.	.	.	.	.
.	.	.	16a/	.	16cc#\	.	.	.	.	.	8r	.	8r	.	.	.
.	.	.	16g/	.	16b\	.	.	.	.	.	.	.	.	.	.	.
8r	.	.	16f#/	.	16a\	.	.	.	.	.	8g\	Glo-	8ee\	Glo-	.	.
.	.	.	16e/JJ	.	16g\JJ	.	.	.	.	.	.	.	.	.	.	.
!	!	!	!	!	!LO:LB:g=original	!	!	!	!	!	!	!	!	!	!	!
=122	=122	=122	=122	=122	=122	=122	=122	=122	=122	=122	=122	=122	=122	=122	=122	=122
4.D\	.	.	8d/L	.	8f#/L	.	.	.	.	.	4f#\	-ri-	4dd\	-ri-	.	.
.	.	.	8f#/	.	8a/	.	.	.	.	.	.	.	.	.	.	.
.	.	.	8f#/J	.	8a/J	.	.	.	.	.	8f#\	-a	8dd\	-a	.	.
!	!	!	!	!	!LO:TX:t=P:problem:mixed beam	!	!	!	!	!	!	!	!LO:LB:g=original	!	!	!
4.AA/	.	.	8c#/L	.	8e/L	.	.	.	.	.	4a\	fi-	8.ee\L	fi-	.	.
.	.	.	8e/	.	8cc#\	.	.	.	.	.	.	.	.	.	.	.
.	.	.	.	.	.	.	.	.	.	.	.	.	16dd\K	.	.	.
.	.	.	8e/J	.	8cc#\J	.	.	.	.	.	8a\	-li-	8ee\J	-li-	.	.
=123	=123	=123	=123	=123	=123	=123	=123	=123	=123	=123	=123	=123	=123	=123	=123	=123
!	!	!	!LO:TX:t=P:problem:mixed beam	!	!	!	!	!	!	!	!	!	!	!	!	!
4DD/	.	.	8f#/L	.	8dd\L	.	0.r	.	0.r	.	4dd\	-o	4ff#\	-o	.	.
.	.	.	8dd\	.	8ff#\	.	.	.	.	.	.	.	.	.	.	.
8r	.	.	8dd\J	.	8ff#\J	.	.	.	.	.	8r	.	8r	.	.	.
4r	.	.	16cc#/LL	.	16ee\LL	.	.	.	.	.	8r	.	8r	.	.	.
.	.	.	16b/	.	16dd\	.	.	.	.	.	.	.	.	.	.	.
.	.	.	16a/	.	16cc#\	.	.	.	.	.	8r	.	8r	.	.	.
.	.	.	16g/	.	16b\	.	.	.	.	.	.	.	.	.	.	.
8r	.	.	16f#/	.	16a\	.	.	.	.	.	8g\	Glo-	8ee\	Glo-	.	.
.	.	.	16e/JJ	.	16g\JJ	.	.	.	.	.	.	.	.	.	.	.
!	!	!	!	!	!	!	!	!	!	!	!LO:LB:g=original	!	!	!	!	!
=124	=124	=124	=124	=124	=124	=124	=124	=124	=124	=124	=124	=124	=124	=124	=124	=124
4D\	.	.	8d/L	.	8f#/L	.	.	.	.	.	4.f#\	.	4.dd\	.	.	.
.	.	.	8f#/	.	8a/	.	.	.	.	.	.	.	.	.	.	.
8r	.	.	8f#/J	.	8a/J	.	.	.	.	.	.	.	.	.	.	.
4D\	.	.	8d/L	.	8f#/L	.	.	.	.	.	8.f#\	-ri-	8dd\	.	.	.
.	.	.	8f#/	.	8a/	.	.	.	.	.	.	.	8cc#\	-ri-	.	.
.	.	.	.	.	.	.	.	.	.	.	16e\	.	.	.	.	.
8r	.	.	8f#/J	.	8a/J	.	.	.	.	.	8f#\	a	8dd\	-a	.	.
=125	=125	=125	=125	=125	=125	=125	=125	=125	=125	=125	=125	=125	=125	=125	=125	=125
4AA/	.	.	8c#/L	.	8e/L	.	.	.	.	.	4a\	(et)	4ee\	(et)	1.r	1.r
.	.	.	8e/	.	8g/	.	.	.	.	.	.	.	.	.	.	.
8r	.	.	8e/J	.	8g/J	.	.	.	.	.	8a\	Spi-	8ee\	Spi-	.	.
*	*	*	*rep	*	*	*	*	*	*	*	*	*	*	*	*	*
4AA/	.	.	8c#/L	.	8e/L	.	.	.	.	.	8.cc#\	-ri-	8.ee\	-ri-	.	.
.	.	.	8e/	.	8g/	.	.	.	.	.	.	.	.	.	.	.
.	.	.	.	.	.	.	.	.	.	.	16b\	-tu-	16dd\	-tu-	.	.
8r	.	.	8e/J	.	8g/J	.	.	.	.	.	8cc#\	-i	8ee\	-i	.	.
*	*	*	*Xrep	*	*	*	*	*	*	*	*	*	*	*	*	*
!	!	!	!LO:LB:g=original	!	!	!	!	!	!	!	!	!	!	!	!	!
=126	=126	=126	=126	=126	=126	=126	=126	=126	=126	=126	=126	=126	=126	=126	=126	=126
!	!	!	!	!	!	!	!	!	!	!	!	!	!LO:SIC:v:l:s=San-	!	!	!
8D\L	8_ 3_	.	4.d/	.	4.f#/	.	.	.	.	.	4.dd\	Sanc-	4.ff#\	Sanc-	.	.
8d\	.	.	.	.	.	.	.	.	.	.	.	.	.	.	.	.
8c#\J	.	.	.	.	.	.	.	.	.	.	.	.	.	.	.	.
8B\L	.	.	4.d/	.	4.f#/	.	.	.	.	.	4.dd\	.	4.ff#\	.	.	.
8A\	.	.	.	.	.	.	.	.	.	.	.	.	.	.	.	.
8G#X\J	.	.	.	.	.	.	.	.	.	.	.	.	.	.	.	.
!LO:LB:g=original	!	!	!	!	!	!	!	!	!	!	!	!	!LO:LB:g=original	!	!	!
=127	=127	=127	=127	=127	=127	=127	=127	=127	=127	=127	=127	=127	=127	=127	=127	=127
4.A\	6 4	.	8.d/L	.	8.f#/L	.	2.r	.	2.r	.	8dd\L	.	8.ff#\L	.	2.r	2.r
.	.	.	.	.	.	.	.	.	.	.	8cc#\	.	.	.	.	.
.	.	.	16c#/K	.	16e/K	.	.	.	.	.	.	.	16ee\K	.	.	.
.	.	.	8d/J	.	8f#/J	.	.	.	.	.	8dd\J	.	8ff#\J	.	.	.
!LO:TX:t=P:problem:mixed beam	!	!	!	!	!	!	!	!	!	!	!	!	!	!	!	!
8AA/L	5 3	.	4c#/	.	4e/	.	.	.	.	.	4cc#\	-to	4ee\	-cto	.	.
16A\L|	.	.	.	.	.	.	.	.	.	.	.	.	.	.	.	.
16Gn\|	.	.	.	.	.	.	.	.	.	.	.	.	.	.	.	.
16F#\|	.	.	8r	.	8r	.	.	.	.	.	8r	.	8r	.	.	.
16E\JJ|	.	.	.	.	.	.	.	.	.	.	.	.	.	.	.	.
!	!	!	!	!	!	!	!	!	!	!	!	!	!	!	!	!LO:LB:g=original
=128	=128	=128	=128	=128	=128	=128	=128	=128	=128	=128	=128	=128	=128	=128	=128	=128
!LO:TX:a:i:t=tutti	!	!	!	!	!	!	!	!	!	!	!	!	!	!	!	!
8D\L	.	.	16f#/LL	.	4dd\	.	4D\	Si-	4d\	Si-	4a\	Si-	4ff#\	Si-	4.d\	4.f#\
.	.	.	16a/	.	.	.	.	.	.	.	.	.	.	.	.	.
8D\	.	.	16f#/	.	.	.	.	.	.	.	.	.	.	.	.	.
.	.	.	16a/	.	.	.	.	.	.	.	.	.	.	.	.	.
8D\J	.	.	16f#/	.	8dd\	.	8D\	-cut	8d\	-cut	8a\	-cut	8ff#\	-cut	.	.
.	.	.	16a/JJ	.	.	.	.	.	.	.	.	.	.	.	.	.
8E\L	6 3	.	16g/LL	.	8.cc#\L	.	4E\	e-	4c#\	e-	4a\	e-	4gg\	e-	4.A/	4.e\
.	.	.	16a/	.	.	.	.	.	.	.	.	.	.	.	.	.
8E\	.	.	16g/	.	.	.	.	.	.	.	.	.	.	.	.	.
.	.	.	16a/	.	16b\K	.	.	.	.	.	.	.	.	.	.	.
8E\J	.	.	16g/	.	8cc#\J	.	8E\	-rat	8c#\	-rat	8a\	-rat	8gg\	-rat	.	.
.	.	.	16a/JJ	.	.	.	.	.	.	.	.	.	.	.	.	.
!	!	!	!	!	!LO:LB:g=original	!	!	!	!	!	!LO:LB:g=original	!	!	!	!LO:LB:g=original	!
=129	=129	=129	=129	=129	=129	=129	=129	=129	=129	=129	=129	=129	=129	=129	=129	=129
*	*	*	*tremolo	*	*	*	*	*	*	*	*	*	*	*	*	*
8D\L	3	.	16f#/LL	.	4dd\	.	4D\	in	4d\	in	4a\	in	4ff#\	in	4.F#/	4.d\
.	.	.	16a/	.	.	.	.	.	.	.	.	.	.	.	.	.
8D\	.	.	16f#/	.	.	.	.	.	.	.	.	.	.	.	.	.
.	.	.	16a/	.	.	.	.	.	.	.	.	.	.	.	.	.
8D\J	.	.	16f#/	.	8ff#\	.	8D\	prin-	8d\	prin-	8a\	prin-	8ff#\	prin-	.	.
.	.	.	16a/JJ	.	.	.	.	.	.	.	.	.	.	.	.	.
!	!	!	!	!	!	!	!LO:LB:g=original	!	!LO:LB:g=original	!	!	!	!	!	!	!
8C#/L	6_ 5_	.	16e/LL	.	8aa\L	.	8.C#/	-ci-	8.e\	-ci-	8.a\	-ci-	8gg\	-ci-	4.A/	4.e\
.	.	.	16a/	.	.	.	.	.	.	.	.	.	.	.	.	.
8C#/	.	.	16e/	.	8gg\	.	.	.	.	.	.	.	8gg\	-pi-	.	.
.	.	.	16a/	.	.	.	16C#/	-pi-	16e\	-pi-	16a\	-pi-	.	.	.	.
8C#/J	.	.	16e/	.	8ee\J	.	8C#/	-o	8e\	-o	8a\	-o	8gg\	-o	.	.
.	.	.	16a/JJ	.	.	.	.	.	.	.	.	.	.	.	.	.
=130	=130	=130	=130	=130	=130	=130	=130	=130	=130	=130	=130	=130	=130	=130	=130	=130
8D\L	3_	.	16f#/LL	.	4dd\	.	4D\	Si-	4d\	Si-	4a\	Si-	4ff#\	Si-	4.d\	4.f#\
.	.	.	16a/	.	.	.	.	.	.	.	.	.	.	.	.	.
8D\	.	.	16f#/	.	.	.	.	.	.	.	.	.	.	.	.	.
.	.	.	16a/	.	.	.	.	.	.	.	.	.	.	.	.	.
8D\J	.	.	16f#/	.	8dd\	.	8D\	-cut	8d\	-cut	8a\	-cut	8ff#\	-cut	.	.
.	.	.	16a/JJ	.	.	.	.	.	.	.	.	.	.	.	.	.
8E\L	6_ 3_	.	16g/LL	.	8.cc#\L	.	4E\	e-	4c#\	e-	4a\	e-	4gg\	[[t]]e-	4.A/	4.e\
.	.	.	16a/	.	.	.	.	.	.	.	.	.	.	.	.	.
8E\	.	.	16g/	.	.	.	.	.	.	.	.	.	.	.	.	.
.	.	.	16a/	.	16b\K	.	.	.	.	.	.	.	.	.	.	.
!	!	!	!	!	!	!	!	!	!	!	!	!	!LO:TX:b:i:t=Verte.	!	!	!
8E\J	.	.	16g/	.	8cc#\J	.	8E\	-rat	8c#\	-rat	8a\	-rat	8gg\	-rat	.	.
.	.	.	16a/JJ	.	.	.	.	.	.	.	.	.	.	.	.	.
!	!	!	!	!	!	!	!	!	!	!	!	!	!LO:PB:g=original	!	!	!
=131	=131	=131	=131	=131	=131	=131	=131	=131	=131	=131	=131	=131	=131	=131	=131	=131
8D\L	3	.	16f#/LL	.	4dd\	.	4D\	in	4d\	in	4a\	in	4ff#\	in	4.F#/	4.d\
.	.	.	16a/	.	.	.	.	.	.	.	.	.	.	.	.	.
8D\	.	.	16f#/	.	.	.	.	.	.	.	.	.	.	.	.	.
.	.	.	16a/	.	.	.	.	.	.	.	.	.	.	.	.	.
8D\J	.	.	16f#/	.	8ff#\	.	8D\	prin-	8d\	prin-	8a\	prin-	8ff#\	prin-	.	.
.	.	.	16a/JJ	.	.	.	.	.	.	.	.	.	.	.	.	.
8C#/L	6 5	.	16e/LL	.	8aa\L	.	8.C#/	-ci-	8.e\	-ci-	8.a\	-ci-	8.gg\	-ci-	4.A/	4.e\
.	.	.	16a/	.	.	.	.	.	.	.	.	.	.	.	.	.
8C#/	.	.	16e/	.	8gg\	.	.	.	.	.	.	.	.	.	.	.
.	.	.	16a/	.	.	.	16C#/	-pi-	16e\	-pi-	16a\	-pi-	16gg\	-pi-	.	.
!	!	!	!	!	!	!	!	!	!	!	!LO:TX:b:i:t=Verte	!	!	!	!	!
8C#/J	.	.	16e/	.	8ee\J	.	8C#/	-o	8e\	-o	8a\	-o	8gg\	-o	.	.
.	.	.	16a/JJ	.	.	.	.	.	.	.	.	.	.	.	.	.
!	!	!	!	!	!	!	!	!	!	!	!LO:LB:g=original	!	!	!	!	!
=132	=132	=132	=132	=132	=132	=132	=132	=132	=132	=132	=132	=132	=132	=132	=132	=132
8D\L	3_	.	16f#/LL	.	4dd\	.	8D\	et	8d\	et	8a\	et	8ff#\	(et)	4.F#/	4.d\
.	.	.	16a/	.	.	.	.	.	.	.	.	.	.	.	.	.
8D\	.	.	16f#/	.	.	.	8D\	nunc	8d\	nunc	8a\	nunc	8ff#\	nunc	.	.
.	.	.	16a/	.	.	.	.	.	.	.	.	.	.	.	.	.
8D\J	.	.	16f#/	.	8dd\	.	8D\	(et)	8d\	et	8a\	et	8ff#\	(et)	.	.
.	.	.	16a/JJ	.	.	.	.	.	.	.	.	.	.	.	.	.
8D\L	x	.	16f#/LL	.	8.dd\L	.	4D\	Sem-	4d\	Sem-	4a\	Sem-	4ff#\	Sem-	4.F#/	4.d\
.	.	.	16a/	.	.	.	.	.	.	.	.	.	.	.	.	.
8D\	.	.	16f#/	.	.	.	.	.	.	.	.	.	.	.	.	.
.	.	.	16a/	.	16cc#\K	.	.	.	.	.	.	.	.	.	.	.
8D\J	.	.	16f#/	.	8dd\J	.	8D\	-per	8d\	-per	8a\	-per	8ff#\	-per	.	.
.	.	.	16a/JJ	.	.	.	.	.	.	.	.	.	.	.	.	.
!LO:LB:g=original	!	!	!	!	!	!	!	!	!LO:LB:g=original	!	!	!	!	!	!	!
=133	=133	=133	=133	=133	=133	=133	=133	=133	=133	=133	=133	=133	=133	=133	=133	=133
8C#/L	6_ 5_	.	16g/LL	.	4ee\	.	4C#/	et	4e\	Et	4a\	et	4ee\	(et)	4.A/	4.e\
.	.	.	16a/	.	.	.	.	.	.	.	.	.	.	.	.	.
8C#/	.	.	16g/	.	.	.	.	.	.	.	.	.	.	.	.	.
.	.	.	16a/	.	.	.	.	.	.	.	.	.	.	.	.	.
8C#/J	.	.	16g/	.	8ee\	.	8C#/	in	8e\	in	8a\	in	8ee\	in	.	.
.	.	.	16a/JJ	.	.	.	.	.	.	.	.	.	.	.	.	.
8C#/L	.	.	16g/LL	.	8.ee\L	.	8.C#/	Se-	8.e\	Se-	8.a\	Se-	8.ee\	Se-	4.A/	4.e\
.	.	.	16a/	.	.	.	.	.	.	.	.	.	.	.	.	.
8C#/	.	.	16g/	.	.	.	.	.	.	.	.	.	.	.	.	.
.	.	.	16a/	.	16dd\K	.	16C#/	-cu-	16e\	-cu-	16a\	-cu-	16ee\	-cu-	.	.
8C#/J	.	.	16g/	.	8ee\J	.	8C#/	-la	8e\	-la	8a\	-la	8ee\	-la	.	.
.	.	.	16a/JJ	.	.	.	.	.	.	.	.	.	.	.	.	.
*	*	*	*Xtremolo	*	*	*	*	*	*	*	*	*	*	*	*	*
!	!	!	!LO:LB:g=original	!	!	!	!LO:LB:g=original	!	!	!	!	!	!	!	!	!
=134	=134	=134	=134	=134	=134	=134	=134	=134	=134	=134	=134	=134	=134	=134	=134	=134
8D\L	3_	.	16f#/LL	.	4dd\	.	4D\	Se-	4d\	Se-	4a\	Se-	4ff#\	Se-	4.d\	4.f#\
.	.	.	16a/JJ	.	.	.	.	.	.	.	.	.	.	.	.	.
8D\	.	.	16f#/LL	.	.	.	.	.	.	.	.	.	.	.	.	.
.	.	.	16a/	.	.	.	.	.	.	.	.	.	.	.	.	.
8D\J	.	.	16f#/	.	8ff#\	.	8D\	-cu-	8d\	-cu-	8a\	-cu-	8ff#\	-cu-	.	.
.	.	.	16a/JJ	.	.	.	.	.	.	.	.	.	.	.	.	.
*	*	*	*tremolo	*	*	*	*	*	*	*	*	*	*	*	*	*
!	!	!	!	!	!	!	!	!	!	!	!	!	!LO:LB:g=original	!	!	!
8D\L	.	.	16f#/LL	.	8.ff#\L	.	4D\	-lo-	4d\	-lo-	4a\	-lo-	4ff#\	-lo-	4.d\	4.f#\
.	.	.	16a/	.	.	.	.	.	.	.	.	.	.	.	.	.
8D\	.	.	16f#/	.	.	.	.	.	.	.	.	.	.	.	.	.
.	.	.	16a/	.	16ee\K	.	.	.	.	.	.	.	.	.	.	.
8D\J	.	.	16f#/	.	8ff#\J	.	8D\	-rum	8d\	-rum	8a\	-rum	8ff#\	-rum	.	.
.	.	.	16a/JJ	.	.	.	.	.	.	.	.	.	.	.	.	.
*	*	*	*Xtremolo	*	*	*	*	*	*	*	*	*	*	*	*	*
!	!	!	!	!	!LO:LB:g=original	!	!	!	!	!	!LO:LB:g=original	!	!	!	!	!
=135	=135	=135	=135	=135	=135	=135	=135	=135	=135	=135	=135	=135	=135	=135	=135	=135
8E\L	x	.	8b/L	.	8gg\L	.	8E\L	a-	4.B\	a-	8b\L	a-	8gg\L	a-	8e\L	8g\L
8F#\	.	.	8a/	.	8ff#\	.	8F#\	.	.	.	8a\	.	8ff#\	.	8d\	8a\
8G\J	6	.	8g/J	.	8ee\J	.	8G\J	.	.	.	8g\J	.	8ee\J	.	8e\J	8g\J
!LO:TX:t=P:problem:mixed beam	!	!	!	!	!	!	!	!	!	!	!	!	!	!	!	!
8A\L	4	.	8f#/L	.	8dd\L	.	4.A\	.	4.A\	.	8f#\L	.	8dd\L	.	8d/L	8f#\L
8AA/	3_	.	8g/	.	8ee\	.	.	.	.	.	8g\	.	8ee\	.	8A/	8e\
8AA/J	.	.	8e/J	.	8cc#\J	.	.	.	.	.	8e\J	.	8cc#\J	.	8A/J	8e\J
=136	=136	=136	=136	=136	=136	=136	=136	=136	=136	=136	=136	=136	=136	=136	=136	=136
4D\	x	.	8f#/L	.	8dd\L	.	4D\	-men	4A\	-men	4f#\	men	4dd\	men	4F#/	4d\
.	.	.	8a/	.	8ff#\	.	.	.	.	.	.	.	.	.	.	.
8r	.	.	8f#/J	.	8dd\J	.	8r	.	8r	.	8r	.	8r	.	8r	8r
*	*	*	*	*	*	*	*	*ij	*	*ij	*	*	*	*ij	*	*
4.D\	.	.	8f#/L	.	8a/L	.	4D\	a-	4A\	a-	4f#\	a-	4dd\	a-	4.F#/	4.d\
.	.	.	8d/	.	8f#/	.	.	.	.	.	.	.	.	.	.	.
.	.	.	8d/J	.	8f#/J	.	8r	.	8r	.	8r	.	8r	.	.	.
=137	=137	=137	=137	=137	=137	=137	=137	=137	=137	=137	=137	=137	=137	=137	=137	=137
4A\	.	.	8e/L	.	8g\L	.	4A\	-men	4A\	-men	4e\	-men	4cc#\	-men	4A/	4e\
*	*	*	*	*	*	*	*	*	*	*	*	*ij	*	*Xij	*	*
.	.	.	8g/	.	8ee\	.	.	.	.	.	.	.	.	.	.	.
8r	.	.	8e/J	.	8cc#\J	.	8r	.	8r	.	8r	.	8r	.	8r	8r
4.AA/	.	.	8e/L	.	8g/L	.	4.AA/	a	4.A\	a-	4.g\	a-	4ee\	a-	4.A/	4.e\
.	.	.	8c#/	.	8e/	.	.	.	.	.	.	.	.	.	.	.
.	.	.	8c#/J	.	8e/J	.	.	.	.	.	.	.	8r	.	.	.
=138	=138	=138	=138	=138	=138	=138	=138	=138	=138	=138	=138	=138	=138	=138	=138	=138
4D\	.	.	8d/L	.	8f#/L	.	4D\	men	4A\	-men	4f#\	-men	4dd\	-men	4F#/	4d\
*	*	*	*	*	*	*	*	*Xij	*	*Xij	*	*Xij	*	*	*	*
.	.	.	8f#/	.	8a/	.	.	.	.	.	.	.	.	.	.	.
8r	.	.	8f#/J	.	8a/J	.	8r	.	8r	.	8r	.	8r	.	8r	8r
8D\L	8 3	.	8f#/L	.	8dd\L	.	8D\L	a-	4A\	a-	8dd\L	a-	8ff#\L	a-	4r	4r
8E\	6 3	.	8g/	.	8cc#\	.	8E\	.	.	.	8cc#\	.	8gg\	.	.	.
8F#\J	5 3	.	8a/J	.	8ccn\J	.	8F#\J	.	8d\	.	8ccn\J	.	8aa\J	.	8r	8r
!	!	!	!	!	!	!	!	!	!	!	!	!	!	!	!	!LO:LB:g=original
=139	=139	=139	=139	=139	=139	=139	=139	=139	=139	=139	=139	=139	=139	=139	=139	=139
4.G\	3	.	4.b/	.	8b\L	.	4.G\	.	4.e\	.	4.b\	.	4.gg\	.	4.e\	4.g\
.	.	.	.	.	8gg\	.	.	.	.	.	.	.	.	.	.	.
.	6	.	.	.	8ee\J	.	.	.	.	.	.	.	.	.	.	.
.	.	.	.	.	8qdd/	.	.	.	.	.	.	.	.	.	.	.
4.A\	#	.	4.g/	.	8cc#X\L	.	4.A\	.	4.c#\	.	4.a\	.	4.ee\	.	4.A/	4.e\
.	.	.	.	.	16b\L	.	.	.	.	.	.	.	.	.	.	.
.	.	.	.	.	16a\	.	.	.	.	.	.	.	.	.	.	.
.	.	.	.	.	16b\	.	.	.	.	.	.	.	.	.	.	.
.	.	.	.	.	16cc#\JJ	.	.	.	.	.	.	.	.	.	.	.
!	!	!	!	!	!	!	!	!	!	!	!LO:LB:g=original	!	!	!	!	!
=140	=140	=140	=140	=140	=140	=140	=140	=140	=140	=140	=140	=140	=140	=140	=140	=140
!LO:TX:a:i:t=pleno	!	!	!LO:TX:t=P:problem:mixed beam	!	!	!	!	!	!	!	!	!	!	!	!	!
8D\	.	.	8f#/L	.	16dd\LL	.	8D\	-men	8d\	-men	8a\	-men	8ff#\	men	8F#/	8d\
.	.	.	.	.	16ff#\	.	.	.	.	.	.	.	.	.	.	.
8r	.	.	16ff#\L	.	16aa\	.	8r	.	8r	.	8r	.	8r	.	8r	8r
.	.	.	16ee\	.	16gg\	.	.	.	.	.	.	.	.	.	.	.
*	*	*	*	*	*	*	*	*	*	*ij	*	*	*	*ij	*	*
8A\	.	.	16dd\	.	16ff#\	.	8A\	a-	8c#\	a-	8a\	a-	8ee\	a-	8A/	8e\
.	.	.	16cc#\JJ	.	16ee\JJ	.	.	.	.	.	.	.	.	.	.	.
!LO:LB:g=original	!	!	!	!	!	!	!	!	!	!	!	!	!	!	!	!
8D\	.	.	16dd\LL	.	16dd\LL	.	8D\	-men	8d\	-men	8a\	-men	8ff#\	-men	8F#/	8d\
*	*	*	*	*	*	*	*	*ij	*	*	*	*	*	*Xij	*	*
.	.	.	16ff#\	.	16aa\	.	.	.	.	.	.	.	.	.	.	.
8r	.	.	16ff#\	.	16aa\	.	8r	.	8r	.	8r	.	8r	.	8r	8r
.	.	.	16ee\	.	16gg\	.	.	.	.	.	.	.	.	.	.	.
8A\	.	.	16dd\	.	16ff#\	.	8A\	a-	8c#\	a-	8a\	a-	8ee\	a-	8A/	8e\
.	.	.	16cc#\JJ	.	16ee\JJ	.	.	.	.	.	.	.	.	.	.	.
!	!	!	!LO:LB:g=original	!	!LO:LB:g=original	!	!	!	!	!	!	!	!	!	!	!
=141	=141	=141	=141	=141	=141	=141	=141	=141	=141	=141	=141	=141	=141	=141	=141	=141
*	*	*	*	*	*	*	*	*	*	*	*	*	*	*	*tremolo	*
8D\L	.	.	8dd\L	.	8ff#\L	.	4D\	-men	4d\	-men	4a\	-men	4ff#\	-men	8F#/L	8d\L
8D\	.	.	8dd 8f#\	.	8ff# 8a 8d\	.	.	.	.	.	.	.	.	.	8F#/	8d\
8D\J	.	.	8ddJ 8f#\	.	8ff#J 8a 8d\	.	8r	.	8r	.	8r	.	8r	.	8F#/J	8d\J
*	*	*	*	*	*	*	*	*Xij	*	*Xij	*	*	*	*	*Xtremolo	*
4D\	.	.	4dd 4f#\	.	4ff# 4a 4d\	.	4r	.	4r	.	4r	.	4r	.	4F#/	4d\
!LO:TX:t=P:problem:fermata nad kreską taktową	!	!	!LO:TX:t=P:problem:fermata nad kreską taktową	!	!LO:TX:t=P:problem:fermata nad kreską taktową	!	!LO:TX:t=P:problem:fermata nad kreską taktową	!	!LO:TX:t=P:problem:fermata nad kreską taktową	!	!LO:TX:t=P:problem:fermata nad kreską taktową	!	!LO:TX:t=P:problem:fermata nad kreską taktową	!	!LO:TX:t=P:problem:fermata nad kreską taktową	!LO:TX:t=P:problem:fermata nad kreską taktową
8r	.	.	8r	.	8r	.	8r	.	8r	.	8r	.	8r	.	8r	8r
==	==	==	==	==	==	==	==	==	==	==	==	==	==	==	==	==
*-	*-	*-	*-	*-	*-	*-	*-	*-	*-	*-	*-	*-	*-	*-	*-	*-
!!!system-decoration: [(g1)][(g2)][(g3)]<s9>
!!!RDF**kern: > = above
!!!RDF**kern: < = below
!!!RDF**kern: | = vertical stroke
!!!RDF**dynam: f = "for"
!!!RDF**dynam: p = "pia"
!!!ENC: Marta Opryszak
!!!END: 2021-11-29
!!!ENC: Andrzej Kubiczek
!!!END: 2021-12-17
